luts/ili-quente.cube
TITLE "ili — dessaturado quente"
LUT_3D_SIZE 5
DOMAIN_MIN 0 0 0
DOMAIN_MAX 1 1 1
0.044550 0.015000 0.014625
0.189217 0.042672 0.041605
0.333886 0.068381 0.066671
0.480520 0.094152 0.091798
0.629119 0.119986 0.116986
0.130444 0.225712 0.100961
0.274306 0.251862 0.126171
0.420134 0.278073 0.151442
0.567927 0.304347 0.176773
0.717686 0.330683 0.202165
0.215057 0.438454 0.186011
0.360078 0.465106 0.211425
0.507065 0.491820 0.236900
0.656018 0.518596 0.262436
0.806936 0.545435 0.288032
0.300354 0.655250 0.271747
0.446535 0.682404 0.297366
0.594681 0.709621 0.323045
0.744793 0.736900 0.348785
0.896871 0.764241 0.374586
0.386334 0.876100 0.358171
0.533675 0.903757 0.383994
0.682980 0.931476 0.409878
0.834252 0.959258 0.435822
0.987489 0.987102 0.461827
0.053742 0.024476 0.143329
0.197776 0.051396 0.168641
0.342561 0.077126 0.194013
0.489312 0.102918 0.219447
0.638029 0.128773 0.244941
0.138954 0.234586 0.228721
0.282934 0.260756 0.254237
0.428878 0.286989 0.279814
0.576789 0.313284 0.305452
0.726665 0.339641 0.331150
0.223637 0.447498 0.314801
0.368775 0.474171 0.340521
0.515879 0.500906 0.366303
0.664949 0.527704 0.392145
0.815984 0.554564 0.418047
0.309002 0.664465 0.401568
0.455300 0.691640 0.427493
0.603564 0.718878 0.453478
0.753793 0.746178 0.479524
0.905988 0.773541 0.505631
0.395052 0.885486 0.489022
0.542509 0.913164 0.515151
0.691932 0.940904 0.541341
0.843321 0.968707 0.567592
0.996675 0.996572 0.593903
0.062934 0.033953 0.271603
0.206342 0.060127 0.297221
0.351244 0.085878 0.322900
0.498112 0.111692 0.348640
0.646946 0.137568 0.374440
0.147472 0.243466 0.358026
0.291568 0.269658 0.383848
0.437630 0.295912 0.409731
0.585658 0.322228 0.435675
0.735651 0.348607 0.461680
0.232223 0.456549 0.445136
0.377479 0.483244 0.471162
0.524700 0.510000 0.497250
0.673887 0.536819 0.523398
0.825039 0.563700 0.549607
0.317658 0.673687 0.532933
0.464073 0.700883 0.559164
0.612454 0.728142 0.585456
0.762800 0.755464 0.611809
0.915111 0.782847 0.638222
0.403777 0.894878 0.621418
0.551351 0.922578 0.647853
0.700891 0.950339 0.674349
0.852396 0.978163 0.700906
1.000000 1.000000 0.727524
0.071860 0.043155 0.401422
0.214914 0.068865 0.427346
0.359934 0.094638 0.453331
0.506919 0.120473 0.479377
0.655870 0.146370 0.505484
0.155997 0.252354 0.488875
0.300210 0.278567 0.515004
0.446389 0.304842 0.541193
0.594533 0.331179 0.567443
0.744643 0.357579 0.593754
0.240817 0.465608 0.577015
0.386190 0.492323 0.603348
0.533528 0.519101 0.629742
0.682832 0.545941 0.656197
0.834101 0.572843 0.682712
0.326321 0.682916 0.665843
0.472853 0.710134 0.692380
0.621350 0.737414 0.718978
0.771814 0.764756 0.745637
0.924242 0.792161 0.772357
0.412509 0.904278 0.755358
0.560200 0.931998 0.782100
0.709857 0.959781 0.808902
0.861479 0.987626 0.835765
1.000000 1.000000 0.862689
0.080323 0.051879 0.532785
0.223494 0.077611 0.559016
0.368630 0.103404 0.585307
0.515733 0.129260 0.611660
0.664800 0.155179 0.638073
0.164528 0.261249 0.621269
0.308859 0.287483 0.647704
0.455155 0.313779 0.674200
0.603416 0.340138 0.700756
0.753643 0.366559 0.727373
0.249418 0.474674 0.710439
0.394907 0.501410 0.737079
0.542363 0.528209 0.763779
0.691783 0.555070 0.790540
0.843170 0.581993 0.817361
0.334991 0.692152 0.800298
0.481640 0.719391 0.827141
0.630254 0.746692 0.854046
0.780834 0.774056 0.881011
0.933380 0.801482 0.908037
0.421247 0.913685 0.890843
0.569056 0.941427 0.917891
0.718830 0.969230 0.945000
0.870569 0.997097 0.972169
1.000000 1.000000 1.000000
