luts/ili-forte.cube
TITLE "ili — dessaturado forte"
LUT_3D_SIZE 33
DOMAIN_MIN 0 0 0
DOMAIN_MAX 1 1 1
0.010000 0.010000 0.010000
0.024887 0.015262 0.015262
0.039774 0.020524 0.020524
0.054661 0.025786 0.025786
0.068407 0.031047 0.031047
0.081538 0.036309 0.036309
0.094695 0.041571 0.041571
0.107879 0.046833 0.046833
0.121090 0.052095 0.052095
0.134327 0.057357 0.057357
0.147591 0.062305 0.062305
0.160881 0.066938 0.066938
0.174198 0.071575 0.071575
0.187542 0.076216 0.076216
0.200912 0.080860 0.080860
0.214308 0.085507 0.085507
0.227732 0.090157 0.090157
0.241182 0.094811 0.094811
0.254658 0.099468 0.099468
0.268161 0.104128 0.104128
0.281691 0.108792 0.108792
0.295247 0.113459 0.113459
0.308830 0.118129 0.118129
0.322440 0.122802 0.122802
0.336076 0.127479 0.127479
0.349738 0.132160 0.132160
0.363428 0.136843 0.136843
0.377143 0.141530 0.141530
0.390886 0.146220 0.146220
0.404655 0.150914 0.150914
0.418451 0.155611 0.155611
0.432273 0.160311 0.160311
0.446122 0.165015 0.165015
0.027701 0.037326 0.027701
0.042588 0.042588 0.032963
0.057475 0.047850 0.038225
0.070888 0.053112 0.043487
0.084023 0.058374 0.048749
0.097186 0.063200 0.054010
0.110375 0.067834 0.059272
0.123590 0.072472 0.063991
0.136832 0.077113 0.068626
0.150101 0.081757 0.073265
0.163397 0.086405 0.077906
0.176719 0.091056 0.082551
0.190067 0.095710 0.087199
0.203442 0.100368 0.091851
0.216844 0.105029 0.096506
0.230272 0.109693 0.101164
0.243727 0.114361 0.105825
0.257209 0.119032 0.110490
0.270717 0.123706 0.115158
0.284252 0.128384 0.119830
0.297813 0.133065 0.124505
0.311401 0.137749 0.129183
0.325015 0.142436 0.133864
0.338657 0.147127 0.138549
0.352324 0.151821 0.143237
0.366019 0.156519 0.147929
0.379739 0.161220 0.152624
0.393487 0.165924 0.157322
0.407261 0.170631 0.162023
0.421062 0.175342 0.166728
0.434889 0.180056 0.171436
0.448743 0.184774 0.176147
0.462623 0.189495 0.180862
0.045402 0.064095 0.045402
0.060255 0.068730 0.050664
0.073369 0.073369 0.055926
0.086510 0.078010 0.061045
0.099677 0.082655 0.065678
0.112871 0.087304 0.070314
0.126092 0.091955 0.074954
0.139339 0.096610 0.079597
0.152613 0.101269 0.084243
0.165913 0.105930 0.088892
0.179240 0.110595 0.093545
0.192594 0.115263 0.098201
0.205974 0.119935 0.102861
0.219381 0.124610 0.107523
0.232814 0.129288 0.112189
0.246274 0.133970 0.116859
0.259761 0.138655 0.121532
0.273274 0.143343 0.126208
0.286813 0.148034 0.130887
0.300380 0.152729 0.135570
0.313973 0.157427 0.140256
0.327592 0.162129 0.144945
0.341238 0.166833 0.149638
0.354911 0.171542 0.154334
0.368610 0.176253 0.159033
0.382336 0.180968 0.163735
0.396089 0.185686 0.168441
0.409868 0.190407 0.173151
0.423674 0.195132 0.177863
0.437506 0.199860 0.182579
0.451365 0.204591 0.187298
0.465250 0.209326 0.192021
0.479162 0.214064 0.196747
0.062732 0.088203 0.062732
0.075851 0.092855 0.067366
0.088997 0.097510 0.072003
0.102169 0.102169 0.076644
0.115368 0.106832 0.081288
0.128594 0.111497 0.085935
0.141846 0.116166 0.090586
0.155125 0.120838 0.095240
0.168431 0.125514 0.099897
0.181763 0.130193 0.104558
0.195121 0.134875 0.109222
0.208506 0.139560 0.113889
0.221918 0.144249 0.118560
0.235357 0.148941 0.123234
0.248822 0.153637 0.127911
0.262313 0.158336 0.132591
0.275831 0.163038 0.137275
0.289376 0.167743 0.141962
0.302948 0.172452 0.146653
0.316545 0.177164 0.151347
0.330170 0.181879 0.156044
0.343821 0.186598 0.160744
0.357499 0.191320 0.165448
0.371203 0.196046 0.170155
0.384934 0.200774 0.174866
0.398692 0.205506 0.179580
0.412476 0.210242 0.184297
0.426287 0.214980 0.189017
0.440124 0.219722 0.193741
0.453988 0.224468 0.198468
0.467878 0.229216 0.203198
0.481795 0.233968 0.207932
0.495739 0.238723 0.212669
0.078334 0.112399 0.078334
0.091485 0.117069 0.082979
0.104663 0.121742 0.087628
0.117867 0.126418 0.092280
0.131097 0.131097 0.096935
0.144355 0.135780 0.101594
0.157638 0.140466 0.106255
0.170949 0.145156 0.110921
0.184286 0.149849 0.115589
0.197650 0.154545 0.120261
0.211040 0.159244 0.124936
0.224457 0.163947 0.129614
0.237900 0.168653 0.134296
0.251370 0.173362 0.138981
0.264867 0.178075 0.143670
0.278390 0.182791 0.148361
0.291940 0.187511 0.153057
0.305516 0.192233 0.157755
0.319119 0.196959 0.162457
0.332749 0.201689 0.167162
0.346405 0.206421 0.171870
0.360088 0.211157 0.176582
0.373797 0.215897 0.181297
0.387533 0.220639 0.186015
0.401296 0.225385 0.190737
0.415085 0.230134 0.195462
0.428900 0.234887 0.200190
0.442743 0.239643 0.204921
0.456612 0.244402 0.209656
0.470507 0.249165 0.214395
0.484429 0.253931 0.219136
0.498378 0.258700 0.223881
0.512353 0.263472 0.228629
0.093974 0.136686 0.093974
0.107157 0.141372 0.098631
0.120366 0.146062 0.103290
0.133602 0.150756 0.107953
0.146864 0.155453 0.112620
0.160153 0.160153 0.117289
0.173468 0.164856 0.121962
0.186810 0.169563 0.126639
0.200179 0.174273 0.131318
0.213574 0.178986 0.136001
0.226996 0.183703 0.140688
0.240445 0.188423 0.145377
0.253920 0.193146 0.150070
0.267421 0.197873 0.154767
0.280949 0.202603 0.159466
0.294504 0.207336 0.164169
0.308086 0.212073 0.168875
0.321694 0.216813 0.173585
0.335328 0.221556 0.178298
0.348990 0.226303 0.183014
0.362677 0.231053 0.187734
0.376392 0.235806 0.192456
0.390133 0.240562 0.197183
0.403900 0.245322 0.201912
0.417695 0.250086 0.206645
0.431515 0.254852 0.211381
0.445363 0.259622 0.216121
0.459237 0.264395 0.220863
0.473137 0.269172 0.225609
0.487064 0.273951 0.230359
0.501018 0.278735 0.235112
0.514998 0.283521 0.239868
0.529005 0.288311 0.244627
0.109652 0.161062 0.109652
0.122866 0.165766 0.114319
0.136107 0.170473 0.118990
0.149374 0.175184 0.123665
0.162668 0.179898 0.128342
0.175989 0.184615 0.133023
0.189336 0.189336 0.137707
0.202709 0.194060 0.142395
0.216110 0.198787 0.147086
0.229536 0.203518 0.151780
0.242990 0.208251 0.156477
0.256470 0.212989 0.161178
0.269977 0.217729 0.165882
0.283510 0.222473 0.170590
0.297070 0.227220 0.175300
0.310656 0.231971 0.180014
0.324269 0.236725 0.184732
0.337909 0.241482 0.189453
0.351575 0.246243 0.194177
0.365268 0.251006 0.198904
0.378987 0.255774 0.203635
0.392734 0.260544 0.208369
0.406506 0.265318 0.213106
0.420305 0.270095 0.217847
0.434131 0.274876 0.222591
0.447984 0.279659 0.227338
0.461863 0.284446 0.232089
0.475768 0.289237 0.236843
0.489700 0.294031 0.241600
0.503659 0.298828 0.246361
0.517644 0.303628 0.251125
0.531656 0.308432 0.255892
0.545695 0.313239 0.260662
0.125367 0.185527 0.125367
0.138613 0.190248 0.130046
0.151885 0.194973 0.134728
0.165184 0.199701 0.139413
0.178510 0.204432 0.144102
0.191862 0.209167 0.148794
0.205241 0.213905 0.153490
0.218646 0.218646 0.158188
0.232078 0.223390 0.162890
0.245536 0.228138 0.167596
0.259021 0.232890 0.172304
0.272533 0.237644 0.177016
0.286071 0.242402 0.181732
0.299636 0.247163 0.186450
0.313228 0.251928 0.191172
0.326846 0.256695 0.195897
0.340491 0.261467 0.200626
0.354162 0.266241 0.205358
0.367860 0.271019 0.210093
0.381584 0.275800 0.214832
0.395335 0.280584 0.219574
0.409113 0.285372 0.224319
0.422917 0.290163 0.229067
0.436748 0.294958 0.233819
0.450605 0.299755 0.238574
0.464489 0.304556 0.243333
0.478400 0.309361 0.248095
0.492337 0.314168 0.252860
0.506301 0.318979 0.257628
0.520291 0.323794 0.262400
0.534308 0.328611 0.267175
0.548352 0.333432 0.271954
0.562422 0.338257 0.276735
0.141120 0.210082 0.141120
0.154397 0.214821 0.145810
0.167701 0.219563 0.150503
0.181032 0.224308 0.155200
0.194389 0.229056 0.159900
0.207773 0.233808 0.164603
0.221183 0.238563 0.169309
0.234620 0.243322 0.174019
0.248084 0.248084 0.178732
0.261574 0.252849 0.183449
0.275091 0.257617 0.188169
0.288634 0.262389 0.192892
0.302204 0.267164 0.197618
0.315800 0.271943 0.202348
0.329423 0.276724 0.207081
0.343073 0.281509 0.211818
0.356749 0.286298 0.216558
0.370452 0.291089 0.221301
0.384182 0.295884 0.226047
0.397938 0.300683 0.230797
0.411720 0.305485 0.235550
0.425530 0.310290 0.240306
0.439366 0.315098 0.245066
0.453228 0.319909 0.249829
0.467117 0.324724 0.254595
0.481033 0.329543 0.259365
0.494975 0.334364 0.264138
0.508944 0.339189 0.268914
0.522939 0.344018 0.273694
0.536961 0.348849 0.278477
0.551010 0.353684 0.283263
0.565085 0.358522 0.288053
0.579187 0.363364 0.292846
0.156910 0.234727 0.156910
0.170219 0.239483 0.161612
0.183555 0.244242 0.166316
0.196917 0.249004 0.171024
0.210306 0.253770 0.175735
0.223721 0.258539 0.180449
0.237163 0.263312 0.185167
0.250632 0.268087 0.189888
0.264127 0.272866 0.194612
0.277649 0.277649 0.199340
0.291197 0.282435 0.204071
0.304772 0.287224 0.208805
0.318374 0.292016 0.213543
0.332002 0.296812 0.218284
0.345657 0.301611 0.223028
0.359338 0.306413 0.227776
0.373046 0.311219 0.232527
0.386780 0.316028 0.237281
0.400541 0.320840 0.242039
0.414329 0.325655 0.246800
0.428143 0.330474 0.251564
0.441984 0.335297 0.256331
0.455852 0.340122 0.261102
0.469746 0.344951 0.265877
0.483666 0.349783 0.270654
0.497614 0.354619 0.275435
0.511588 0.359458 0.280219
0.525588 0.364300 0.285007
0.539615 0.369145 0.289797
0.553669 0.373994 0.294592
0.567749 0.378846 0.299389
0.581856 0.383702 0.304190
0.595989 0.388561 0.308994
0.172738 0.259461 0.172738
0.186079 0.264234 0.177451
0.199446 0.269011 0.182166
0.212840 0.273790 0.186885
0.226261 0.278573 0.191608
0.239708 0.283360 0.196333
0.253181 0.288150 0.201062
0.266681 0.292943 0.205794
0.280208 0.297739 0.210530
0.293761 0.302538 0.215269
0.307341 0.307341 0.220011
0.320948 0.312148 0.224756
0.334581 0.316957 0.229505
0.348241 0.321770 0.234257
0.361927 0.326587 0.239013
0.375640 0.331406 0.243772
0.389380 0.336229 0.248534
0.403146 0.341055 0.253299
0.416939 0.345885 0.258068
0.430758 0.350718 0.262840
0.444604 0.355554 0.267615
0.458476 0.360393 0.272394
0.472375 0.365236 0.277176
0.486301 0.370082 0.281962
0.500253 0.374932 0.286750
0.514232 0.379785 0.291542
0.528238 0.384641 0.296338
0.542270 0.389500 0.301136
0.556329 0.394363 0.305938
0.570414 0.399229 0.310744
0.584526 0.404098 0.315552
0.598664 0.408971 0.320364
0.612829 0.413847 0.325180
0.188604 0.284285 0.188604
0.201976 0.289076 0.193328
0.215375 0.293869 0.198054
0.228801 0.298666 0.202784
0.242253 0.303466 0.207518
0.255731 0.308270 0.212255
0.269237 0.313077 0.216995
0.282768 0.317887 0.221738
0.296327 0.322701 0.226485
0.309912 0.327518 0.231235
0.323523 0.332338 0.235988
0.337161 0.337161 0.240745
0.350826 0.341988 0.245505
0.364518 0.346819 0.250268
0.378236 0.351652 0.255035
0.391980 0.356489 0.259805
0.405751 0.361329 0.264578
0.419549 0.366173 0.269355
0.433373 0.371019 0.274135
0.447224 0.375869 0.278918
0.461102 0.380723 0.283705
0.475006 0.385580 0.288495
0.488937 0.390440 0.293288
0.502894 0.395303 0.298084
0.516878 0.400170 0.302884
0.530888 0.405040 0.307687
0.544926 0.409913 0.312494
0.558989 0.414790 0.317304
0.573080 0.419670 0.322117
0.587196 0.424553 0.326934
0.601340 0.429440 0.331753
0.615510 0.434330 0.336576
0.629707 0.439223 0.341403
0.204507 0.309199 0.204507
0.217911 0.314006 0.209242
0.231342 0.318817 0.213980
0.244799 0.323632 0.218721
0.258282 0.328449 0.223466
0.271793 0.333270 0.228214
0.285329 0.338094 0.232965
0.298893 0.342922 0.237720
0.312483 0.347752 0.242478
0.326100 0.352587 0.247239
0.339743 0.357424 0.252003
0.353413 0.362265 0.256771
0.367109 0.367109 0.261542
0.380832 0.371956 0.266317
0.394582 0.376807 0.271095
0.408358 0.381661 0.275876
0.422161 0.386519 0.280660
0.435990 0.391379 0.285448
0.449846 0.396243 0.290239
0.463728 0.401111 0.295034
0.477638 0.405982 0.299831
0.491573 0.410856 0.304633
0.505536 0.415733 0.309437
0.519525 0.420614 0.314245
0.533540 0.425498 0.319056
0.547582 0.430385 0.323870
0.561651 0.435275 0.328688
0.575746 0.440169 0.333509
0.589868 0.445067 0.338333
0.604017 0.449967 0.343161
0.618192 0.454871 0.347992
0.632394 0.459778 0.352826
0.646622 0.464689 0.357664
0.220448 0.334202 0.220448
0.233884 0.339027 0.225194
0.247346 0.343855 0.229943
0.260834 0.348686 0.234696
0.274350 0.353521 0.239451
0.287892 0.358359 0.244211
0.301460 0.363201 0.248973
0.315055 0.368046 0.253739
0.328677 0.372894 0.258508
0.342325 0.377745 0.263280
0.356000 0.382600 0.268056
0.369701 0.387458 0.272835
0.383429 0.392319 0.277617
0.397184 0.397184 0.282403
0.410965 0.402052 0.287192
0.424773 0.406923 0.291984
0.438607 0.411798 0.296780
0.452468 0.416676 0.301579
0.466356 0.421557 0.306381
0.480270 0.426442 0.311187
0.494211 0.431330 0.315996
0.508178 0.436221 0.320808
0.522172 0.441116 0.325624
0.536193 0.446014 0.330443
0.550240 0.450915 0.335265
0.564314 0.455819 0.340090
0.578414 0.460727 0.344919
0.592541 0.465638 0.349751
0.606694 0.470553 0.354587
0.620875 0.475471 0.359426
0.635081 0.480392 0.364268
0.649315 0.485317 0.369114
0.663575 0.490244 0.373962
0.236427 0.359295 0.236427
0.249894 0.364137 0.241184
0.263387 0.368982 0.245944
0.276908 0.373831 0.250708
0.290455 0.378683 0.255475
0.304028 0.383538 0.260245
0.317628 0.388397 0.265018
0.331255 0.393259 0.269795
0.344908 0.398124 0.274576
0.358588 0.402993 0.279359
0.372295 0.407865 0.284146
0.386028 0.412740 0.288936
0.399787 0.417619 0.293730
0.413573 0.422501 0.298527
0.427386 0.427386 0.303327
0.441226 0.432275 0.308130
0.455092 0.437167 0.312937
0.468984 0.442062 0.317747
0.482904 0.446961 0.322561
0.496849 0.451862 0.327378
0.510822 0.456768 0.332198
0.524821 0.461676 0.337021
0.538846 0.466588 0.341848
0.552899 0.471503 0.346678
0.566977 0.476422 0.351512
0.581083 0.481344 0.356348
0.595215 0.486269 0.361188
0.609373 0.491197 0.366032
0.623558 0.496129 0.370878
0.637770 0.501064 0.375728
0.652008 0.506002 0.380582
0.666273 0.510944 0.385438
0.680565 0.515889 0.390298
0.252443 0.384477 0.252443
0.265941 0.389337 0.257211
0.279467 0.394199 0.261982
0.293019 0.399065 0.266757
0.306597 0.403934 0.271535
0.320202 0.408807 0.276317
0.333834 0.413683 0.281102
0.347492 0.418562 0.285890
0.361177 0.423445 0.290681
0.374889 0.428331 0.295476
0.388627 0.433220 0.300274
0.402391 0.438113 0.305075
0.416183 0.443009 0.309880
0.430001 0.447908 0.314688
0.443845 0.452810 0.319499
0.457716 0.457716 0.324314
0.471614 0.462625 0.329132
0.485538 0.467538 0.333953
0.499489 0.472454 0.338778
0.513466 0.477373 0.343606
0.527470 0.482295 0.348437
0.541501 0.487221 0.353272
0.555558 0.492150 0.358110
0.569642 0.497082 0.362951
0.583752 0.502018 0.367796
0.597889 0.506957 0.372644
0.612053 0.511900 0.377495
0.626243 0.516845 0.382350
0.640460 0.521794 0.387207
0.654703 0.526747 0.392069
0.668973 0.531702 0.396933
0.683270 0.536661 0.401801
0.697593 0.541624 0.406672
0.268496 0.409749 0.268496
0.282027 0.414626 0.273276
0.295584 0.419506 0.278058
0.309167 0.424389 0.282844
0.322777 0.429276 0.287634
0.336414 0.434165 0.292426
0.350077 0.439059 0.297222
0.363767 0.443955 0.302022
0.377484 0.448855 0.306824
0.391227 0.453758 0.311630
0.404997 0.458665 0.316439
0.418793 0.463574 0.321252
0.432616 0.468488 0.326068
0.446465 0.473404 0.330887
0.460341 0.478324 0.335710
0.474244 0.483247 0.340535
0.488173 0.488173 0.345365
0.502129 0.493103 0.350197
0.516112 0.498036 0.355033
0.530121 0.502973 0.359872
0.544156 0.507912 0.364715
0.558219 0.512855 0.369560
0.572307 0.517802 0.374410
0.586423 0.522751 0.379262
0.600565 0.527704 0.384118
0.614733 0.532661 0.388977
0.628929 0.537620 0.393839
0.643150 0.542583 0.398705
0.657399 0.547550 0.403574
0.671674 0.552519 0.408446
0.685975 0.557492 0.413322
0.700304 0.562468 0.418201
0.714658 0.567448 0.423083
0.284588 0.435111 0.284588
0.298150 0.440005 0.289378
0.311738 0.444902 0.294172
0.325353 0.449802 0.298969
0.338995 0.454706 0.303770
0.352663 0.459613 0.308573
0.366358 0.464524 0.313381
0.380080 0.469437 0.318191
0.393828 0.474355 0.323005
0.407603 0.479275 0.327822
0.421404 0.484199 0.332642
0.435232 0.489126 0.337466
0.449087 0.494056 0.342293
0.462968 0.498990 0.347124
0.476875 0.503927 0.351957
0.490810 0.508867 0.356794
0.504771 0.513811 0.361635
0.518758 0.518758 0.366478
0.532772 0.523708 0.371325
0.546813 0.528662 0.376176
0.560880 0.533619 0.381029
0.574974 0.538579 0.385886
0.589094 0.543543 0.390747
0.603241 0.548510 0.395610
0.617415 0.553480 0.400477
0.631615 0.558454 0.405347
0.645842 0.563431 0.410221
0.660095 0.568411 0.415098
0.674376 0.573394 0.419978
0.688682 0.578381 0.424862
0.703015 0.583371 0.429749
0.717375 0.588365 0.434639
0.731762 0.593362 0.439532
0.300716 0.460562 0.300716
0.314310 0.465473 0.305518
0.327930 0.470388 0.310323
0.341577 0.475305 0.315132
0.355250 0.480226 0.319943
0.368950 0.485151 0.324758
0.382677 0.490078 0.329577
0.396430 0.495009 0.334398
0.410210 0.499944 0.339223
0.424016 0.504882 0.344051
0.437849 0.509823 0.348883
0.451709 0.514767 0.353718
0.465595 0.519714 0.358556
0.479508 0.524665 0.363398
0.493447 0.529620 0.368243
0.507413 0.534577 0.373091
0.521405 0.539538 0.377942
0.535424 0.544503 0.382797
0.549470 0.549470 0.387655
0.563542 0.554441 0.392517
0.577641 0.559415 0.397382
0.591767 0.564393 0.402250
0.605919 0.569374 0.407121
0.620098 0.574358 0.411996
0.634303 0.579345 0.416874
0.648535 0.584336 0.421756
0.662793 0.589330 0.426641
0.677078 0.594328 0.431529
0.691390 0.599329 0.436420
0.705728 0.604333 0.441315
0.720093 0.609340 0.446213
0.734484 0.614351 0.451114
0.748902 0.619365 0.456019
0.316883 0.486103 0.316883
0.330508 0.491031 0.321696
0.344160 0.495963 0.326512
0.357838 0.500898 0.331332
0.371543 0.505836 0.336154
0.385275 0.510778 0.340981
0.399033 0.515723 0.345810
0.412818 0.520671 0.350643
0.426629 0.525623 0.355479
0.440467 0.530578 0.360318
0.454332 0.535536 0.365161
0.468223 0.540497 0.370007
0.482141 0.545462 0.374857
0.496085 0.550431 0.379709
0.510056 0.555402 0.384566
0.524054 0.560377 0.389425
0.538078 0.565355 0.394288
0.552128 0.570337 0.399154
0.566206 0.575322 0.404023
0.580310 0.580310 0.408896
0.594440 0.585301 0.413772
0.608597 0.590296 0.418651
0.622781 0.595294 0.423534
0.636991 0.600296 0.428420
0.651228 0.605300 0.433309
0.665492 0.610308 0.438202
0.679782 0.615320 0.443098
0.694098 0.620335 0.447997
0.708442 0.625353 0.452899
0.722811 0.630374 0.457805
0.737208 0.635399 0.462715
0.751631 0.640427 0.467627
0.766081 0.645458 0.472543
0.333087 0.511733 0.333087
0.346744 0.516679 0.337911
0.360427 0.521628 0.342738
0.374137 0.526580 0.347569
0.387874 0.531536 0.352403
0.401637 0.536495 0.357240
0.415427 0.541457 0.362081
0.429243 0.546422 0.366925
0.443086 0.551391 0.371772
0.456956 0.556363 0.376623
0.470852 0.561339 0.381477
0.484775 0.566318 0.386334
0.498724 0.571300 0.391195
0.512700 0.576285 0.396059
0.526703 0.581274 0.400926
0.540732 0.586266 0.405797
0.554788 0.591262 0.410671
0.568870 0.596260 0.415548
0.582979 0.601263 0.420428
0.597115 0.606268 0.425312
0.611277 0.611277 0.430199
0.625465 0.616289 0.435090
0.639681 0.621304 0.439984
0.653923 0.626323 0.444881
0.668191 0.631345 0.449781
0.682486 0.636370 0.454685
0.696808 0.641399 0.459592
0.711156 0.646431 0.464503
0.725531 0.651466 0.469416
0.739933 0.656505 0.474334
0.754361 0.661547 0.479254
0.768815 0.666592 0.484178
0.783297 0.671641 0.489105
0.349329 0.537453 0.349329
0.363017 0.542416 0.354164
0.376732 0.547382 0.359002
0.390474 0.552352 0.363844
0.404242 0.557325 0.368689
0.418037 0.562301 0.373538
0.431858 0.567280 0.378390
0.445706 0.572263 0.383245
0.459581 0.577249 0.388103
0.473482 0.582239 0.392965
0.487410 0.587231 0.397830
0.501364 0.592228 0.402699
0.515345 0.597227 0.407571
0.529353 0.602230 0.412446
0.543387 0.607236 0.417324
0.557448 0.612245 0.422206
0.571535 0.617258 0.427091
0.585649 0.622274 0.431979
0.599790 0.627293 0.436871
0.613957 0.632316 0.441766
0.628151 0.637342 0.446665
0.642371 0.642371 0.451566
0.656618 0.647404 0.456471
0.670892 0.652440 0.461380
0.685192 0.657479 0.466291
0.699518 0.662522 0.471206
0.713872 0.667567 0.476124
0.728252 0.672617 0.481046
0.742658 0.677669 0.485971
0.757091 0.682725 0.490899
0.771551 0.687784 0.495831
0.786037 0.692847 0.500766
0.800550 0.697913 0.505704
0.365608 0.563263 0.365608
0.379328 0.568243 0.370454
0.393075 0.573227 0.375304
0.406848 0.578213 0.380157
0.420648 0.583203 0.385013
0.434474 0.588197 0.389873
0.448327 0.593193 0.394736
0.462207 0.598194 0.399602
0.476113 0.603197 0.404472
0.490046 0.608204 0.409345
0.504005 0.613214 0.414221
0.517991 0.618227 0.419101
0.532004 0.623244 0.423984
0.546043 0.628264 0.428870
0.560109 0.633287 0.433760
0.574201 0.638314 0.438653
0.588320 0.643343 0.443549
0.602466 0.648377 0.448449
0.616638 0.653413 0.453352
0.630837 0.658453 0.458258
0.645062 0.663497 0.463167
0.659314 0.668543 0.468080
0.673593 0.673593 0.472996
0.687898 0.678646 0.477916
0.702230 0.683703 0.482839
0.716588 0.688763 0.487765
0.730973 0.693826 0.492694
0.745385 0.698892 0.497627
0.759823 0.703962 0.502563
0.774288 0.709035 0.507503
0.788779 0.714112 0.512445
0.803297 0.719191 0.517392
0.817841 0.724275 0.522341
0.381925 0.589162 0.381925
0.395676 0.594160 0.386782
0.409455 0.599160 0.391643
0.423260 0.604164 0.396507
0.437091 0.609172 0.401375
0.450949 0.614182 0.406246
0.464834 0.619196 0.411120
0.478745 0.624214 0.415998
0.492683 0.629234 0.420878
0.506647 0.634258 0.425763
0.520638 0.639285 0.430650
0.534656 0.644316 0.435541
0.548700 0.649350 0.440435
0.562771 0.654387 0.445332
0.576869 0.659428 0.450233
0.590993 0.664472 0.455137
0.605143 0.669519 0.460045
0.619321 0.674569 0.464956
0.633524 0.679623 0.469870
0.647755 0.684680 0.474787
0.662012 0.689741 0.479708
0.676295 0.694805 0.484632
0.690605 0.699872 0.489559
0.704942 0.704942 0.494490
0.719306 0.710016 0.499424
0.733696 0.715093 0.504361
0.748112 0.720174 0.509302
0.762555 0.725257 0.514246
0.777025 0.730344 0.519193
0.791521 0.735435 0.524144
0.806044 0.740529 0.529098
0.820594 0.745626 0.534055
0.835170 0.750726 0.539015
0.398279 0.615151 0.398279
0.412062 0.620166 0.403148
0.425872 0.625184 0.408020
0.439709 0.630205 0.412895
0.453572 0.635229 0.417774
0.467462 0.640257 0.422656
0.481378 0.645289 0.427542
0.495321 0.650323 0.432430
0.509290 0.655361 0.437322
0.523286 0.660402 0.442218
0.537309 0.665447 0.447116
0.551358 0.670495 0.452018
0.565434 0.675546 0.456924
0.579537 0.680600 0.461832
0.593666 0.685658 0.466744
0.607821 0.690719 0.471659
0.622004 0.695784 0.476578
0.636213 0.700851 0.481500
0.650448 0.705923 0.486425
0.664710 0.710997 0.491354
0.678999 0.716075 0.496286
0.693314 0.721156 0.501221
0.707656 0.726240 0.506159
0.722024 0.731328 0.511101
0.736419 0.736419 0.516046
0.750841 0.741513 0.520995
0.765289 0.746611 0.525947
0.779764 0.751712 0.530902
0.794265 0.756816 0.535860
0.808793 0.761924 0.540822
0.823347 0.767035 0.545787
0.837929 0.772149 0.550756
0.852536 0.777267 0.555728
0.414671 0.641230 0.414671
0.428486 0.646261 0.419551
0.442328 0.651297 0.424434
0.456196 0.656335 0.429321
0.470091 0.661377 0.434211
0.484012 0.666422 0.439104
0.497960 0.671471 0.444001
0.511934 0.676522 0.448901
0.525935 0.681578 0.453804
0.539963 0.686636 0.458710
0.554017 0.691698 0.463620
0.568098 0.696763 0.468533
0.582206 0.701831 0.473450
0.596340 0.706903 0.478370
0.610501 0.711978 0.483293
0.624688 0.717057 0.488219
0.638902 0.722138 0.493149
0.653142 0.727223 0.498082
0.667409 0.732312 0.503018
0.681703 0.737403 0.507958
0.696023 0.742498 0.512901
0.710370 0.747597 0.517848
0.724743 0.752698 0.522797
0.739143 0.757803 0.527750
0.753570 0.762912 0.532707
0.768023 0.768023 0.537666
0.782503 0.773138 0.542629
0.797009 0.778256 0.547596
0.811542 0.783378 0.552565
0.826102 0.788503 0.557538
0.840688 0.793631 0.562515
0.855301 0.798763 0.567494
0.869940 0.803898 0.572477
0.431101 0.667398 0.431101
0.444947 0.672447 0.435992
0.458821 0.677499 0.440886
0.472720 0.682555 0.445784
0.486647 0.687614 0.450685
0.500600 0.692676 0.455590
0.514579 0.697742 0.460497
0.528585 0.702811 0.465408
0.542618 0.707884 0.470323
0.556677 0.712959 0.475241
0.570763 0.718038 0.480162
0.584876 0.723121 0.485086
0.599015 0.728206 0.490014
0.613181 0.733295 0.494945
0.627373 0.738388 0.499879
0.641592 0.743483 0.504816
0.655837 0.748582 0.509757
0.670109 0.753685 0.514702
0.684408 0.758790 0.519649
0.698733 0.763899 0.524600
0.713085 0.769011 0.529554
0.727464 0.774127 0.534512
0.741869 0.779246 0.539473
0.756300 0.784368 0.544437
0.770759 0.789494 0.549405
0.785243 0.794623 0.554376
0.799755 0.799755 0.559350
