luts/ili-forte.cube
TITLE "ili — dessaturado forte"
LUT_3D_SIZE 9
DOMAIN_MIN 0 0 0
DOMAIN_MAX 1 1 1
0.010000 0.010000 0.010000
0.068407 0.031047 0.031047
0.121090 0.052095 0.052095
0.174198 0.071575 0.071575
0.227732 0.090157 0.090157
0.281691 0.108792 0.108792
0.336076 0.127479 0.127479
0.390886 0.146220 0.146220
0.446122 0.165015 0.165015
0.078334 0.112399 0.078334
0.131097 0.131097 0.096935
0.184286 0.149849 0.115589
0.237900 0.168653 0.134296
0.291940 0.187511 0.153057
0.346405 0.206421 0.171870
0.401296 0.225385 0.190737
0.456612 0.244402 0.209656
0.512353 0.263472 0.228629
0.141120 0.210082 0.141120
0.194389 0.229056 0.159900
0.248084 0.248084 0.178732
0.302204 0.267164 0.197618
0.356749 0.286298 0.216558
0.411720 0.305485 0.235550
0.467117 0.324724 0.254595
0.522939 0.344018 0.273694
0.579187 0.363364 0.292846
0.204507 0.309199 0.204507
0.258282 0.328449 0.223466
0.312483 0.347752 0.242478
0.367109 0.367109 0.261542
0.422161 0.386519 0.280660
0.477638 0.405982 0.299831
0.533540 0.425498 0.319056
0.589868 0.445067 0.338333
0.646622 0.464689 0.357664
0.268496 0.409749 0.268496
0.322777 0.429276 0.287634
0.377484 0.448855 0.306824
0.432616 0.468488 0.326068
0.488173 0.488173 0.345365
0.544156 0.507912 0.364715
0.600565 0.527704 0.384118
0.657399 0.547550 0.403574
0.714658 0.567448 0.423083
0.333087 0.511733 0.333087
0.387874 0.531536 0.352403
0.443086 0.551391 0.371772
0.498724 0.571300 0.391195
0.554788 0.591262 0.410671
0.611277 0.611277 0.430199
0.668191 0.631345 0.449781
0.725531 0.651466 0.469416
0.783297 0.671641 0.489105
0.398279 0.615151 0.398279
0.453572 0.635229 0.417774
0.509290 0.655361 0.437322
0.565434 0.675546 0.456924
0.622004 0.695784 0.476578
0.678999 0.716075 0.496286
0.736419 0.736419 0.516046
0.794265 0.756816 0.535860
0.852536 0.777267 0.555728
0.464073 0.720003 0.464073
0.519872 0.740357 0.483747
0.576096 0.760765 0.503474
0.632746 0.781225 0.523254
0.689821 0.801739 0.543087
0.747322 0.822307 0.562974
0.805248 0.842927 0.582913
0.863600 0.863600 0.602906
0.922378 0.884327 0.622952
0.530468 0.826288 0.530468
0.586773 0.846918 0.550321
0.643503 0.867602 0.570227
0.700659 0.888339 0.590186
0.758240 0.909129 0.610198
0.816247 0.929972 0.630263
0.874680 0.950868 0.650382
0.933537 0.971818 0.670553
0.992821 0.992821 0.690778
0.017148 0.017148 0.055648
0.074708 0.038195 0.074708
0.127442 0.059243 0.093299
0.180602 0.077880 0.111943
0.234186 0.096479 0.130639
0.288197 0.115132 0.149389
0.342632 0.133838 0.168192
0.397494 0.152597 0.187049
0.452780 0.171409 0.205958
0.084645 0.118743 0.118743
0.137459 0.137459 0.137459
0.190699 0.156229 0.156229
0.244364 0.175051 0.175051
0.298455 0.193927 0.193927
0.352971 0.212855 0.212855
0.407913 0.231837 0.231837
0.463280 0.250872 0.250872
0.519073 0.269961 0.269961
0.147492 0.216520 0.181917
0.200812 0.235512 0.200812
0.254558 0.254558 0.219760
0.308729 0.273656 0.238761
0.363325 0.292808 0.257816
0.418348 0.312013 0.276923
0.473795 0.331271 0.296084
0.529668 0.350582 0.315298
0.585967 0.369946 0.334565
0.210940 0.315730 0.245692
0.264766 0.334999 0.264766
0.319018 0.354320 0.283893
0.373695 0.373695 0.303073
0.428797 0.393122 0.322306
0.484325 0.412603 0.341593
0.540279 0.432137 0.360932
0.596658 0.451725 0.380325
0.653463 0.471365 0.399771
0.274990 0.416374 0.310069
0.329322 0.435919 0.329322
0.384079 0.455516 0.348627
0.439262 0.475167 0.367986
0.494871 0.494871 0.387398
0.550905 0.514628 0.406864
0.607364 0.534438 0.426382
0.664250 0.554301 0.445954
0.721560 0.574218 0.465578
0.339641 0.518452 0.375047
0.394479 0.538273 0.394479
0.449742 0.558146 0.413963
0.505431 0.578073 0.433501
0.561546 0.598053 0.453092
0.618086 0.618086 0.472736
0.675051 0.638172 0.492434
0.732443 0.658312 0.512184
0.790259 0.678504 0.531987
0.404894 0.621964 0.440627
0.460238 0.642060 0.460238
0.516007 0.662210 0.479901
0.572202 0.682413 0.499618
0.628823 0.702669 0.519388
0.685869 0.722978 0.539210
0.743340 0.743340 0.559087
0.801237 0.763756 0.579016
0.859560 0.784224 0.598998
0.470748 0.726909 0.506809
0.526598 0.747282 0.526598
0.582874 0.767707 0.546440
0.639575 0.788186 0.566336
0.696701 0.808718 0.586284
0.754253 0.829303 0.606286
0.812230 0.849942 0.626341
0.870633 0.870633 0.646449
0.929462 0.891378 0.666610
0.537204 0.833288 0.573592
0.593560 0.853937 0.593560
0.650342 0.874638 0.613581
0.707548 0.895393 0.633656
0.765181 0.916201 0.653783
0.823239 0.937063 0.673964
0.881722 0.957977 0.694197
0.940631 0.978945 0.714484
0.999965 0.999965 0.734824
0.024296 0.024296 0.096442
0.081016 0.045343 0.115095
0.133801 0.065626 0.133801
0.187011 0.084190 0.152560
0.240647 0.102808 0.171372
0.294708 0.121479 0.190237
0.349195 0.140203 0.209155
0.404108 0.158980 0.228127
0.459445 0.177810 0.247152
0.090962 0.125093 0.159402
0.143828 0.143828 0.178234
0.197118 0.162615 0.197118
0.250835 0.181455 0.216056
0.304976 0.200349 0.235047
0.359544 0.219296 0.254091
0.414537 0.238296 0.273188
0.469955 0.257349 0.292339
0.525799 0.276455 0.311542
0.153870 0.222964 0.222964
0.207241 0.241974 0.241974
0.261037 0.261037 0.261037
0.315260 0.280154 0.280154
0.369907 0.299324 0.299324
0.424981 0.318547 0.318547
0.480480 0.337823 0.337823
0.536404 0.357152 0.357152
0.592754 0.376534 0.376534
0.217378 0.322268 0.287127
0.271256 0.341554 0.306316
0.325558 0.360894 0.325558
0.380286 0.380286 0.344854
0.435440 0.399732 0.364202
0.491019 0.419231 0.383604
0.547024 0.438783 0.403059
0.603454 0.458389 0.422567
0.660310 0.478047 0.442128
0.281489 0.423006 0.351892
0.335872 0.442568 0.371260
0.390681 0.462184 0.390681
0.445915 0.481853 0.410155
0.501574 0.501574 0.429682
0.557660 0.521349 0.449263
0.614170 0.541178 0.468896
0.671106 0.561059 0.488583
0.728468 0.580993 0.508323
0.346201 0.525177 0.417258
0.401090 0.545016 0.436805
0.456405 0.564908 0.456405
0.512145 0.584852 0.476058
0.568310 0.604850 0.495764
0.624901 0.624901 0.515523
0.681918 0.645006 0.535336
0.739360 0.665163 0.555201
0.797228 0.685374 0.575120
0.411515 0.628783 0.483226
0.466910 0.648897 0.502951
0.522730 0.669065 0.522730
0.578976 0.689286 0.542562
0.635648 0.709560 0.562447
0.692745 0.729887 0.582385
0.750267 0.750267 0.602377
0.808215 0.770701 0.622421
0.866589 0.791187 0.642519
0.477430 0.733822 0.549795
0.533331 0.754212 0.569700
0.589657 0.774656 0.589657
0.646409 0.795153 0.609668
0.703587 0.815703 0.629732
0.761190 0.836306 0.649849
0.819218 0.856963 0.670019
0.877672 0.877672 0.690242
0.936552 0.898435 0.710519
0.543947 0.840294 0.616966
0.600354 0.860961 0.637050
0.657186 0.881681 0.657186
0.714444 0.902454 0.677376
0.772127 0.923280 0.697618
0.830236 0.944159 0.717914
0.888771 0.965092 0.738263
0.947731 0.986077 0.758665
1.000000 1.000000 0.779121
0.031443 0.031443 0.136964
0.087330 0.052491 0.155732
0.140165 0.071925 0.174553
0.193427 0.090507 0.193427
0.247114 0.109143 0.212354
0.301226 0.127832 0.231335
0.355764 0.146574 0.250368
0.410728 0.165369 0.269455
0.466117 0.184217 0.288595
0.097286 0.131450 0.200311
0.150202 0.150202 0.219258
0.203544 0.169007 0.238258
0.257311 0.187866 0.257311
0.311504 0.206778 0.276417
0.366122 0.225742 0.295577
0.421166 0.244760 0.314789
0.476636 0.263832 0.334055
0.532531 0.282956 0.353374
0.160253 0.229414 0.264261
0.213676 0.248442 0.283386
0.267524 0.267524 0.302565
0.321797 0.286658 0.321797
0.376496 0.305846 0.341082
0.431620 0.325087 0.360420
0.487170 0.344381 0.379811
0.543145 0.363728 0.399256
0.599546 0.383129 0.418754
0.223823 0.328812 0.328812
0.277751 0.348116 0.348116
0.332105 0.367474 0.367474
0.386884 0.386884 0.386884
0.442089 0.406348 0.406348
0.497719 0.425865 0.425865
0.553775 0.445435 0.445435
0.610257 0.465059 0.465059
0.667163 0.484735 0.484735
0.287994 0.429643 0.393964
0.342428 0.449224 0.413448
0.397288 0.468857 0.432984
0.452573 0.488544 0.452573
0.508284 0.508284 0.472216
0.564420 0.528077 0.491912
0.620982 0.547923 0.511661
0.677969 0.567823 0.531463
0.735382 0.587775 0.551318
0.352767 0.531909 0.459718
0.407707 0.551765 0.479380
0.463073 0.571675 0.499096
0.518864 0.591638 0.518864
0.575081 0.611654 0.538686
0.631723 0.631723 0.558560
0.688791 0.651845 0.578488
0.746284 0.672021 0.598469
0.804202 0.692249 0.618503
0.418141 0.635608 0.526074
0.473588 0.655740 0.545915
0.529459 0.675926 0.565809
0.585756 0.696165 0.585756
0.642479 0.716457 0.605757
0.699627 0.736802 0.625810
0.757201 0.757201 0.645917
0.815200 0.777652 0.666077
0.873624 0.798157 0.686290
0.484117 0.740741 0.593032
0.540069 0.761149 0.613051
0.596447 0.781611 0.633124
0.653250 0.802126 0.653250
0.710479 0.822694 0.673429
0.768133 0.843315 0.693662
0.826212 0.863990 0.713947
0.884717 0.884717 0.734286
0.943648 0.905498 0.754678
0.550695 0.847307 0.660590
0.607153 0.867992 0.680789
0.664037 0.888730 0.701041
0.721346 0.909521 0.721346
0.779080 0.930365 0.741704
0.837240 0.951262 0.762115
0.895826 0.972213 0.782579
0.954837 0.993216 0.803097
1.000000 1.000000 0.823667
0.038591 0.038591 0.177735
0.093649 0.059639 0.196618
0.146536 0.078229 0.215555
0.199849 0.096830 0.234544
0.253587 0.115484 0.253587
0.307750 0.134190 0.272683
0.362339 0.152950 0.291832
0.417354 0.171764 0.311034
0.472794 0.190630 0.330289
0.103615 0.137812 0.241471
0.156582 0.156582 0.260533
0.209975 0.175406 0.279648
0.263794 0.194282 0.298816
0.318038 0.213212 0.318038
0.372707 0.232195 0.337312
0.427802 0.251231 0.356640
0.483323 0.270320 0.376021
0.539269 0.289463 0.395455
0.166644 0.235870 0.305808
0.220117 0.254916 0.325049
0.274016 0.274016 0.344343
0.328340 0.293169 0.363690
0.383090 0.312374 0.383090
0.438266 0.331633 0.402544
0.493867 0.350946 0.422050
0.549893 0.370311 0.441610
0.606345 0.389729 0.461223
0.230274 0.335362 0.370747
0.284253 0.354684 0.390166
0.338658 0.374060 0.409639
0.393488 0.393488 0.429165
0.448744 0.412970 0.448744
0.504426 0.432505 0.468377
0.560533 0.452094 0.488062
0.617065 0.471735 0.507801
0.674023 0.491430 0.527592
0.294506 0.436287 0.436287
0.348991 0.455886 0.455886
0.403902 0.475537 0.475537
0.459238 0.495242 0.495242
0.515000 0.515000 0.515000
0.571187 0.534811 0.534811
0.627800 0.554675 0.554675
0.684838 0.574593 0.574593
0.742302 0.594563 0.594563
0.359339 0.538646 0.502429
0.414331 0.558521 0.522206
0.469747 0.578448 0.542037
0.525590 0.598429 0.561921
0.581857 0.618463 0.581857
0.638551 0.638551 0.601847
0.695669 0.658691 0.621890
0.753214 0.678884 0.641987
0.811183 0.699131 0.662136
0.424774 0.642439 0.569173
0.480272 0.662590 0.589129
0.536194 0.682793 0.609138
0.592543 0.703050 0.629201
0.649316 0.723360 0.649316
0.706515 0.743724 0.669485
0.764140 0.764140 0.689707
0.822190 0.784610 0.709982
0.880666 0.805132 0.730310
0.490811 0.747665 0.636518
0.546814 0.768092 0.656653
0.603243 0.788572 0.676841
0.660097 0.809105 0.697082
0.717377 0.829691 0.717377
0.775082 0.850331 0.737724
0.833213 0.871023 0.758125
0.891769 0.891769 0.778579
0.950750 0.912568 0.799086
0.557449 0.854326 0.704465
0.613959 0.875028 0.724778
0.670893 0.895784 0.745145
0.728253 0.916593 0.765566
0.786039 0.937456 0.786039
0.844250 0.958371 0.806565
0.902887 0.979340 0.827145
0.961949 1.000000 0.847778
1.000000 1.000000 0.868464
0.045739 0.045739 0.218756
0.099975 0.065975 0.237755
0.152913 0.084540 0.256807
0.206277 0.103159 0.275911
0.260066 0.121831 0.295069
0.314280 0.140555 0.314280
0.368920 0.159334 0.333545
0.423986 0.178165 0.352862
0.479477 0.197049 0.372233
0.109950 0.144181 0.282880
0.162969 0.162969 0.302057
0.216413 0.181810 0.321288
0.270282 0.200705 0.340571
0.324577 0.219653 0.359908
0.379298 0.238654 0.379298
0.434444 0.257708 0.398741
0.490016 0.276815 0.418237
0.546013 0.295976 0.437787
0.173040 0.242332 0.347605
0.226564 0.261397 0.366961
0.280514 0.280514 0.386370
0.334890 0.299685 0.405833
0.389691 0.318909 0.425348
0.444917 0.338186 0.444917
0.500569 0.357516 0.464539
0.556647 0.376899 0.484214
0.613150 0.396336 0.503942
0.236731 0.341918 0.412932
0.290761 0.361258 0.432467
0.345217 0.380652 0.452055
0.400099 0.400099 0.471696
0.455406 0.419599 0.491390
0.511138 0.439152 0.511138
0.567296 0.458758 0.530939
0.623879 0.478417 0.550793
0.680888 0.498130 0.570700
0.301024 0.442937 0.478860
0.355560 0.462553 0.498574
0.410522 0.482223 0.518341
0.465909 0.501946 0.538161
0.521722 0.521722 0.558034
0.577960 0.541551 0.577960
0.634624 0.561434 0.597940
0.691714 0.581369 0.617973
0.749229 0.601358 0.638059
0.365918 0.545390 0.545390
0.420960 0.565282 0.565282
0.476428 0.585228 0.585228
0.532321 0.605227 0.605227
0.588640 0.625279 0.625279
0.645384 0.645384 0.645384
0.702554 0.665543 0.665543
0.760150 0.685754 0.685754
0.818170 0.706019 0.706019
0.431414 0.649276 0.612521
0.486962 0.669445 0.632593
0.542936 0.689667 0.652717
0.599335 0.709942 0.672895
0.656160 0.730270 0.693126
0.713410 0.750651 0.713410
0.771086 0.771086 0.733747
0.829187 0.791573 0.754138
0.887714 0.812114 0.774581
0.497511 0.754596 0.680254
0.553565 0.775041 0.700504
0.610045 0.795539 0.720808
0.666950 0.816090 0.741164
0.724281 0.836694 0.761574
0.782037 0.857352 0.782037
0.840219 0.878062 0.802553
0.898826 0.898826 0.823122
0.957859 0.919643 0.843745
0.564210 0.861350 0.748589
0.620770 0.882071 0.769018
0.677756 0.902845 0.789500
0.735167 0.923672 0.810036
0.793004 0.944553 0.830624
0.851266 0.965486 0.851266
0.909954 0.986473 0.871961
0.969067 1.000000 0.892709
1.000000 1.000000 0.913510
0.052887 0.052887 0.260028
0.106307 0.072274 0.279142
0.159296 0.090857 0.298309
0.212711 0.109494 0.317529
0.266551 0.128184 0.336802
0.320817 0.146927 0.356128
0.375508 0.165723 0.375508
0.430625 0.184572 0.394941
0.486167 0.203474 0.414426
0.116292 0.150555 0.324539
0.169362 0.169362 0.343832
0.222857 0.188221 0.363178
0.276777 0.207134 0.382576
0.331123 0.226100 0.402029
0.385895 0.245119 0.421534
0.441092 0.264191 0.441092
0.496715 0.283316 0.460704
0.552763 0.302495 0.480368
0.179442 0.248801 0.389652
0.233018 0.267883 0.409124
0.287019 0.287019 0.428648
0.341445 0.306208 0.448226
0.396297 0.325449 0.467857
0.451575 0.344745 0.487541
0.507278 0.364093 0.507278
0.563407 0.383494 0.527068
0.619961 0.402949 0.546912
0.243194 0.348480 0.455367
0.297275 0.367838 0.475017
0.351782 0.387250 0.494720
0.406715 0.406715 0.514477
0.462073 0.426233 0.534287
0.517856 0.445804 0.554149
0.574065 0.465428 0.574065
0.630700 0.485106 0.594035
0.687760 0.504837 0.614057
0.307547 0.449593 0.521683
0.362135 0.469227 0.541512
0.417148 0.488915 0.561394
0.472586 0.508656 0.581329
0.528450 0.528450 0.601318
0.584740 0.548297 0.621360
0.641455 0.568198 0.641455
0.698595 0.588151 0.661603
0.756161 0.608158 0.681804
0.372502 0.552139 0.588600
0.427596 0.572050 0.608608
0.483115 0.592014 0.628669
0.539059 0.612031 0.648784
0.595429 0.632101 0.668951
0.652224 0.652224 0.689172
0.709445 0.672401 0.709445
0.767092 0.692630 0.729772
0.825164 0.712913 0.750152
0.438059 0.656120 0.656120
0.493658 0.676306 0.676306
0.549683 0.696546 0.696546
0.606133 0.716839 0.716839
0.663009 0.737186 0.737186
0.720311 0.757585 0.757585
0.778038 0.778038 0.778038
0.836190 0.798543 0.798543
0.894768 0.819102 0.819102
0.504217 0.761534 0.724241
0.560322 0.781996 0.744606
0.616853 0.802512 0.765025
0.673809 0.823082 0.785497
0.731191 0.843704 0.806022
0.788999 0.864379 0.826600
0.847231 0.885108 0.847231
0.905890 0.905890 0.867916
0.964974 0.926725 0.888654
0.570977 0.868381 0.792963
0.627588 0.889120 0.813507
0.684625 0.909912 0.834105
0.742087 0.930757 0.854756
0.799975 0.951656 0.875460
0.858288 0.972607 0.896217
0.917027 0.993612 0.917027
0.976191 1.000000 0.937890
1.000000 1.000000 0.958807
0.060030 0.060030 0.301549
0.112645 0.078579 0.320778
0.165685 0.097180 0.340061
0.219151 0.115835 0.359396
0.273042 0.134543 0.378785
0.327359 0.153304 0.398226
0.382101 0.172118 0.417721
0.437269 0.190985 0.437269
0.492862 0.209906 0.456870
0.122640 0.156936 0.366449
0.175760 0.175760 0.385856
0.229307 0.194638 0.405317
0.283278 0.213569 0.424832
0.337675 0.232553 0.444399
0.392498 0.251590 0.464020
0.447746 0.270680 0.483693
0.503420 0.289823 0.503420
0.559519 0.309020 0.523200
0.185851 0.255275 0.431949
0.239477 0.274376 0.451536
0.293529 0.293529 0.471176
0.348007 0.312736 0.490869
0.402910 0.331996 0.510615
0.458239 0.351309 0.530414
0.513993 0.370676 0.550267
0.570173 0.390095 0.570173
0.626778 0.409568 0.590131
0.249663 0.355048 0.498052
0.303796 0.374425 0.517817
0.358354 0.393854 0.537636
0.413337 0.413337 0.557508
0.468746 0.432873 0.577433
0.524581 0.452463 0.597411
0.580841 0.472105 0.617442
0.637527 0.491801 0.637527
0.694638 0.511549 0.657664
0.314077 0.456255 0.564756
0.368716 0.475907 0.584700
0.423780 0.495613 0.604697
0.479269 0.515372 0.624748
0.535184 0.535184 0.644852
0.591525 0.555050 0.665009
0.648291 0.574968 0.685219
0.705483 0.594940 0.705483
0.763100 0.614965 0.725799
0.379093 0.558895 0.632061
0.434237 0.578824 0.652184
0.489807 0.598806 0.672361
0.545803 0.618841 0.692590
0.602224 0.638929 0.712873
0.659070 0.659070 0.733209
0.716342 0.679265 0.753598
0.774040 0.699513 0.774040
0.832163 0.719813 0.794535
0.444710 0.662969 0.699968
0.500361 0.683174 0.720270
0.556437 0.703432 0.740625
0.612938 0.723743 0.761034
0.669865 0.744107 0.781495
0.727217 0.764525 0.802010
0.784995 0.784995 0.822578
0.843199 0.805519 0.843199
0.901828 0.826096 0.863873
0.510929 0.768477 0.768477
0.567086 0.788958 0.788958
0.623667 0.809492 0.809492
0.680675 0.830079 0.830079
0.738108 0.850719 0.850719
0.795966 0.871413 0.871413
0.854250 0.892160 0.892160
0.912959 0.912959 0.912959
0.972094 0.933812 0.933812
0.577750 0.875418 0.837587
0.634412 0.896175 0.858247
0.691500 0.916985 0.878960
0.749013 0.937849 0.899726
0.806952 0.958765 0.920545
0.865316 0.979735 0.941417
0.924106 1.000000 0.962343
0.983322 1.000000 0.983322
1.000000 1.000000 1.000000
0.066324 0.066324 0.343321
0.118989 0.084890 0.362665
0.172081 0.103510 0.382063
0.225597 0.122182 0.401513
0.279540 0.140908 0.421017
0.333908 0.159687 0.440574
0.388701 0.178520 0.460184
0.443920 0.197405 0.479848
0.499564 0.216344 0.499564
0.128994 0.163323 0.408608
0.182165 0.182165 0.428131
0.235763 0.201061 0.447707
0.289785 0.220010 0.467337
0.344234 0.239012 0.487020
0.399107 0.258067 0.506755
0.454407 0.277175 0.526544
0.510131 0.296337 0.546386
0.566282 0.315551 0.566282
0.192265 0.261756 0.474496
0.245943 0.280874 0.494199
0.300046 0.300046 0.513954
0.354575 0.319271 0.533762
0.409529 0.338549 0.553623
0.464909 0.357880 0.573538
0.520714 0.377265 0.593506
0.576945 0.396702 0.613527
0.633601 0.416193 0.633601
0.256139 0.361623 0.540987
0.310322 0.381017 0.560868
0.364931 0.400465 0.580802
0.419966 0.419966 0.600789
0.475426 0.439520 0.620829
0.531312 0.459127 0.640922
0.587623 0.478788 0.661069
0.644360 0.498501 0.681269
0.701522 0.518268 0.701522
0.320613 0.462923 0.608078
0.375303 0.482594 0.628138
0.430418 0.502318 0.648251
0.485959 0.522095 0.668417
0.541925 0.541925 0.688636
0.598316 0.561808 0.708908
0.655134 0.581745 0.729234
0.712376 0.601734 0.749612
0.770044 0.621777 0.770044
0.385690 0.565657 0.675772
0.440885 0.585604 0.696010
0.496506 0.605604 0.716302
0.552553 0.625657 0.736647
0.609025 0.645763 0.757045
0.665923 0.665923 0.777496
0.723246 0.686135 0.798000
0.780994 0.706401 0.818558
0.839168 0.726720 0.839168
0.451368 0.669825 0.744067
0.507069 0.690048 0.764484
0.563196 0.710324 0.784955
0.619749 0.730653 0.805478
0.676727 0.751035 0.826055
0.734130 0.771471 0.846685
0.791959 0.791959 0.867368
0.850214 0.812501 0.888104
0.908894 0.833096 0.908894
0.517648 0.775426 0.812963
0.573855 0.795925 0.833560
0.630488 0.816477 0.854209
0.687546 0.837083 0.874911
0.745030 0.857741 0.895667
0.802940 0.878453 0.916476
0.861275 0.899217 0.937338
0.920035 0.920035 0.958253
0.979221 0.940906 0.979221
0.584529 0.882462 0.882462
0.641242 0.903237 0.903237
0.698381 0.924065 0.924065
0.755945 0.944946 0.944946
0.813935 0.965881 0.965881
0.872351 0.986868 0.986868
0.931192 1.000000 1.000000
0.990458 1.000000 1.000000
1.000000 1.000000 1.000000
