luts/ili-quente.cube
TITLE "ili — dessaturado quente"
LUT_3D_SIZE 33
DOMAIN_MIN 0 0 0
DOMAIN_MAX 1 1 1
0.044550 0.015000 0.014625
0.063847 0.018488 0.018026
0.082006 0.021976 0.021427
0.099797 0.025464 0.024827
0.117620 0.028952 0.028228
0.135473 0.032440 0.031629
0.153357 0.035928 0.035030
0.171272 0.039416 0.038430
0.189217 0.042672 0.041605
0.207193 0.045882 0.044735
0.225200 0.049093 0.047866
0.243237 0.052305 0.050998
0.261306 0.055519 0.054131
0.279405 0.058733 0.057264
0.297534 0.061948 0.060399
0.315694 0.065164 0.063535
0.333886 0.068381 0.066671
0.352107 0.071599 0.069809
0.370360 0.074818 0.072947
0.388643 0.078038 0.076087
0.406957 0.081259 0.079227
0.425301 0.084481 0.082369
0.443677 0.087704 0.085511
0.462083 0.090927 0.088654
0.480520 0.094152 0.091798
0.498987 0.097378 0.094944
0.517485 0.100605 0.098090
0.536014 0.103833 0.101237
0.554574 0.107061 0.104385
0.573164 0.110291 0.107534
0.591785 0.113522 0.110684
0.610437 0.116753 0.113834
0.629119 0.119986 0.116986
0.055932 0.042889 0.026065
0.074717 0.046099 0.029466
0.092496 0.049311 0.032867
0.110306 0.052523 0.036268
0.128146 0.055736 0.039615
0.146018 0.058950 0.042744
0.163920 0.062166 0.045875
0.181852 0.065382 0.049006
0.199816 0.068599 0.052138
0.217810 0.071817 0.055271
0.235835 0.075036 0.058405
0.253890 0.078256 0.061541
0.271977 0.081477 0.064677
0.290094 0.084699 0.067814
0.308242 0.087922 0.070951
0.326420 0.091146 0.074090
0.344629 0.094371 0.077230
0.362869 0.097597 0.080371
0.381140 0.100823 0.083513
0.399441 0.104051 0.086655
0.417773 0.107280 0.089799
0.436136 0.110510 0.092943
0.454529 0.113740 0.096089
0.472953 0.116972 0.099235
0.491408 0.120205 0.102383
0.509894 0.123439 0.105531
0.528410 0.126673 0.108680
0.546957 0.129909 0.111831
0.565535 0.133145 0.114982
0.584143 0.136383 0.118134
0.602782 0.139621 0.121287
0.621452 0.142861 0.124441
0.640153 0.146101 0.127596
0.067313 0.068817 0.037506
0.085199 0.072035 0.040754
0.102996 0.075254 0.043884
0.120824 0.078474 0.047015
0.138683 0.081695 0.050146
0.156573 0.084917 0.053279
0.174493 0.088140 0.056412
0.192444 0.091364 0.059547
0.210425 0.094589 0.062682
0.228437 0.097815 0.065818
0.246480 0.101042 0.068956
0.264554 0.104270 0.072094
0.282659 0.107499 0.075233
0.300794 0.110729 0.078373
0.318960 0.113959 0.081515
0.337156 0.117191 0.084657
0.355383 0.120424 0.087800
0.373641 0.123658 0.090944
0.391930 0.126892 0.094088
0.410250 0.130128 0.097234
0.428600 0.133365 0.100381
0.446981 0.136602 0.103529
0.465392 0.139841 0.106677
0.483834 0.143080 0.109827
0.502307 0.146321 0.112978
0.520811 0.149562 0.116129
0.539345 0.152805 0.119282
0.557911 0.156048 0.122435
0.576506 0.159293 0.125590
0.595133 0.162538 0.128745
0.613790 0.165784 0.131901
0.632478 0.169032 0.135058
0.651197 0.172280 0.138217
0.077908 0.094808 0.048155
0.095692 0.098034 0.051287
0.113508 0.101261 0.054419
0.131354 0.104489 0.057553
0.149231 0.107717 0.060688
0.167138 0.110947 0.063824
0.185077 0.114178 0.066961
0.203046 0.117410 0.070098
0.221045 0.120643 0.073237
0.239076 0.123877 0.076376
0.257137 0.127111 0.079517
0.275229 0.130347 0.082658
0.293351 0.133584 0.085801
0.311504 0.136822 0.088944
0.329688 0.140060 0.092088
0.347903 0.143300 0.095234
0.366148 0.146540 0.098380
0.384425 0.149782 0.101527
0.402731 0.153025 0.104675
0.421069 0.156268 0.107824
0.439437 0.159513 0.110974
0.457836 0.162758 0.114125
0.476266 0.166004 0.117277
0.494726 0.169252 0.120430
0.513217 0.172500 0.123583
0.531739 0.175750 0.126738
0.550292 0.179000 0.129894
0.568875 0.182251 0.133051
0.587489 0.185503 0.136208
0.606133 0.188757 0.139367
0.624809 0.192011 0.142526
0.643515 0.195266 0.145687
0.662252 0.198522 0.148848
0.088393 0.120862 0.058694
0.106196 0.124096 0.061830
0.124030 0.127331 0.064966
0.141894 0.130566 0.068103
0.159789 0.133803 0.071241
0.177715 0.137041 0.074380
0.195671 0.140280 0.077520
0.213658 0.143519 0.080660
0.231676 0.146760 0.083802
0.249724 0.150002 0.086945
0.267804 0.153244 0.090089
0.285914 0.156488 0.093233
0.304054 0.159732 0.096379
0.322226 0.162978 0.099525
0.340428 0.166224 0.102673
0.358661 0.169472 0.105821
0.376924 0.172720 0.108971
0.395218 0.175970 0.112121
0.413543 0.179220 0.115272
0.431899 0.182471 0.118425
0.450285 0.185724 0.121578
0.468702 0.188977 0.124732
0.487150 0.192231 0.127887
0.505629 0.195487 0.131043
0.524138 0.198743 0.134200
0.542678 0.202000 0.137358
0.561248 0.205258 0.140517
0.579850 0.208517 0.143677
0.598482 0.211778 0.146837
0.617145 0.215039 0.149999
0.635838 0.218301 0.153162
0.654562 0.221564 0.156325
0.673317 0.224828 0.159490
0.098890 0.146979 0.069245
0.116711 0.150221 0.072383
0.134563 0.153464 0.075523
0.152445 0.156707 0.078663
0.170358 0.159952 0.081804
0.188302 0.163198 0.084946
0.206276 0.166444 0.088089
0.224281 0.169692 0.091233
0.242317 0.172940 0.094378
0.260384 0.176190 0.097524
0.278481 0.179440 0.100671
0.296609 0.182692 0.103819
0.314768 0.185944 0.106968
0.332958 0.189198 0.110118
0.351178 0.192452 0.113268
0.369429 0.195707 0.116420
0.387710 0.198963 0.119572
0.406023 0.202221 0.122726
0.424366 0.205479 0.125880
0.442740 0.208738 0.129036
0.461144 0.211998 0.132192
0.479579 0.215260 0.135350
0.498045 0.218522 0.138508
0.516542 0.221785 0.141667
0.535069 0.225049 0.144827
0.553627 0.228314 0.147988
0.572216 0.231580 0.151150
0.590835 0.234847 0.154313
0.609485 0.238115 0.157477
0.628166 0.241384 0.160642
0.646878 0.244654 0.163808
0.665620 0.247925 0.166975
0.684393 0.251197 0.170143
0.109397 0.173160 0.079806
0.127236 0.176410 0.082948
0.145106 0.179660 0.086090
0.163006 0.182912 0.089234
0.180938 0.186164 0.092378
0.198900 0.189418 0.095524
0.216892 0.192672 0.098670
0.234915 0.195928 0.101817
0.252970 0.199184 0.104965
0.271054 0.202441 0.108114
0.289170 0.205700 0.111264
0.307316 0.208959 0.114416
0.325493 0.212219 0.117567
0.343700 0.215481 0.120720
0.361939 0.218743 0.123874
0.380208 0.222006 0.127029
0.398507 0.225270 0.130185
0.416838 0.228535 0.133342
0.435199 0.231801 0.136499
0.453591 0.235068 0.139658
0.472014 0.238336 0.142817
0.490467 0.241605 0.145978
0.508951 0.244875 0.149139
0.527466 0.248146 0.152302
0.546011 0.251418 0.155465
0.564587 0.254691 0.158629
0.583194 0.257965 0.161795
0.601832 0.261240 0.164961
0.620500 0.264516 0.168128
0.639199 0.267793 0.171296
0.657929 0.271070 0.174465
0.676689 0.274349 0.177635
0.695480 0.277629 0.180806
0.119915 0.199405 0.090379
0.137772 0.202662 0.093523
0.155660 0.205920 0.096669
0.173579 0.209180 0.099816
0.191528 0.212440 0.102963
0.209508 0.215701 0.106112
0.227519 0.218964 0.109261
0.245560 0.222227 0.112412
0.263632 0.225491 0.115563
0.281735 0.228756 0.118715
0.299869 0.232023 0.121869
0.318033 0.235290 0.125023
0.336228 0.238558 0.128178
0.354454 0.241827 0.131334
0.372710 0.245097 0.134491
0.390997 0.248368 0.137649
0.409315 0.251640 0.140808
0.427664 0.254913 0.143968
0.446043 0.258187 0.147129
0.464453 0.261462 0.150291
0.482894 0.264738 0.153453
0.501365 0.268015 0.156617
0.519867 0.271292 0.159782
0.538400 0.274571 0.162947
0.556964 0.277851 0.166114
0.575558 0.281132 0.169281
0.594183 0.284414 0.172450
0.612839 0.287696 0.175619
0.631525 0.290980 0.178790
0.650242 0.294265 0.181961
0.668990 0.297550 0.185133
0.687768 0.300837 0.188306
0.706578 0.304124 0.191480
0.130444 0.225712 0.100961
0.148319 0.228978 0.104109
0.166225 0.232244 0.107258
0.184162 0.235511 0.110408
0.202129 0.238779 0.113559
0.220127 0.242048 0.116710
0.238156 0.245318 0.119863
0.256216 0.248590 0.123017
0.274306 0.251862 0.126171
0.292427 0.255135 0.129327
0.310578 0.258409 0.132483
0.328761 0.261684 0.135641
0.346974 0.264960 0.138799
0.365218 0.268237 0.141958
0.383492 0.271515 0.145119
0.401798 0.274793 0.148280
0.420134 0.278073 0.151442
0.438500 0.281354 0.154605
0.456898 0.284636 0.157769
0.475326 0.287919 0.160934
0.493785 0.291202 0.164100
0.512274 0.294487 0.167267
0.530794 0.297773 0.170435
0.549345 0.301060 0.173604
0.567927 0.304347 0.176773
0.586539 0.307636 0.179944
0.605182 0.310925 0.183116
0.623856 0.314216 0.186288
0.642561 0.317507 0.189462
0.661296 0.320800 0.192636
0.680062 0.324093 0.195812
0.698859 0.327388 0.198988
0.717686 0.330683 0.202165
0.140983 0.252083 0.111555
0.158876 0.255356 0.114706
0.176800 0.258631 0.117858
0.194755 0.261906 0.121011
0.212741 0.265182 0.124165
0.230757 0.268459 0.127320
0.248804 0.271737 0.130476
0.266882 0.275016 0.133633
0.284990 0.278295 0.136790
0.303129 0.281576 0.139949
0.321299 0.284858 0.143109
0.339499 0.288141 0.146269
0.357731 0.291425 0.149431
0.375993 0.294710 0.152593
0.394285 0.297995 0.155757
0.412609 0.301282 0.158921
0.430963 0.304570 0.162087
0.449347 0.307859 0.165253
0.467763 0.311148 0.168420
0.486209 0.314439 0.171588
0.504686 0.317730 0.174757
0.523194 0.321023 0.177928
0.541732 0.324317 0.181099
0.560301 0.327611 0.184271
0.578901 0.330907 0.187444
0.597531 0.334203 0.190617
0.616193 0.337501 0.193792
0.634885 0.340799 0.196968
0.653607 0.344098 0.200145
0.672361 0.347399 0.203322
0.691145 0.350700 0.206501
0.709959 0.354002 0.209681
0.728805 0.357306 0.212861
0.151533 0.278518 0.122159
0.169444 0.281799 0.125314
0.187387 0.285081 0.128469
0.205359 0.288363 0.131625
0.223363 0.291647 0.134782
0.241397 0.294932 0.137940
0.259463 0.298218 0.141099
0.277558 0.301505 0.144259
0.295685 0.304793 0.147420
0.313842 0.308081 0.150582
0.332030 0.311371 0.153745
0.350249 0.314662 0.156909
0.368498 0.317953 0.160074
0.386778 0.321246 0.163239
0.405089 0.324540 0.166406
0.423430 0.327834 0.169573
0.441802 0.331130 0.172742
0.460205 0.334426 0.175911
0.478639 0.337724 0.179082
0.497103 0.341022 0.182253
0.515598 0.344322 0.185426
0.534124 0.347622 0.188599
0.552681 0.350924 0.191773
0.571268 0.354226 0.194948
0.589886 0.357529 0.198124
0.608534 0.360834 0.201302
0.627214 0.364139 0.204480
0.645924 0.367445 0.207659
0.664664 0.370753 0.210838
0.683436 0.374061 0.214019
0.702238 0.377370 0.217201
0.721071 0.380680 0.220384
0.739934 0.383991 0.223568
0.162093 0.305015 0.132774
0.180023 0.308304 0.135932
0.197983 0.311594 0.139090
0.215974 0.314885 0.142250
0.233996 0.318176 0.145410
0.252049 0.321469 0.148571
0.270132 0.324763 0.151734
0.288246 0.328057 0.154897
0.306390 0.331353 0.158061
0.324566 0.334650 0.161226
0.342772 0.337947 0.164392
0.361008 0.341246 0.167559
0.379276 0.344545 0.170727
0.397574 0.347846 0.173896
0.415903 0.351147 0.177066
0.434263 0.354450 0.180236
0.452653 0.357753 0.183408
0.471074 0.361058 0.186581
0.489526 0.364363 0.189754
0.508008 0.367669 0.192929
0.526521 0.370977 0.196105
0.545065 0.374285 0.199281
0.563640 0.377594 0.202458
0.582245 0.380904 0.205637
0.600881 0.384216 0.208816
0.619548 0.387528 0.211996
0.638245 0.390841 0.215178
0.656973 0.394155 0.218360
0.675732 0.397470 0.221543
0.694522 0.400786 0.224727
0.713342 0.404103 0.227912
0.732193 0.407421 0.231098
0.751075 0.410740 0.234285
0.172665 0.331576 0.143400
0.190612 0.334873 0.146561
0.208591 0.338171 0.149722
0.226600 0.341469 0.152885
0.244640 0.344769 0.156049
0.262711 0.348069 0.159213
0.280812 0.351371 0.162378
0.298944 0.354673 0.165545
0.317107 0.357977 0.168712
0.335300 0.361281 0.171880
0.353524 0.364587 0.175050
0.371779 0.367893 0.178220
0.390065 0.371201 0.181391
0.408381 0.374509 0.184563
0.426728 0.377818 0.187736
0.445106 0.381129 0.190910
0.463514 0.384440 0.194085
0.481953 0.387752 0.197261
0.500423 0.391065 0.200438
0.518924 0.394379 0.203615
0.537455 0.397695 0.206794
0.556017 0.401011 0.209974
0.574610 0.404328 0.213154
0.593233 0.407646 0.216336
0.611887 0.410965 0.219519
0.630572 0.414285 0.222702
0.649287 0.417606 0.225886
0.668034 0.420928 0.229072
0.686811 0.424251 0.232258
0.705618 0.427575 0.235445
0.724457 0.430900 0.238634
0.743326 0.434226 0.241823
0.762226 0.437552 0.245013
0.183247 0.358201 0.154037
0.201213 0.361505 0.157201
0.219209 0.364811 0.160365
0.237236 0.368117 0.163531
0.255294 0.371425 0.166698
0.273383 0.374733 0.169866
0.291502 0.378042 0.173034
0.309653 0.381353 0.176204
0.327833 0.384664 0.179374
0.346045 0.387976 0.182546
0.364287 0.391290 0.185718
0.382560 0.394604 0.188892
0.400864 0.397919 0.192066
0.419198 0.401235 0.195241
0.437563 0.404553 0.198417
0.455959 0.407871 0.201594
0.474386 0.411190 0.204773
0.492843 0.414510 0.207952
0.511331 0.417831 0.211132
0.529850 0.421153 0.214313
0.548399 0.424476 0.217495
0.566979 0.427800 0.220677
0.585590 0.431125 0.223861
0.604232 0.434451 0.227046
0.622904 0.437778 0.230232
0.641607 0.441106 0.233418
0.660340 0.444435 0.236606
0.679105 0.447764 0.239794
0.697900 0.451095 0.242984
0.716726 0.454427 0.246174
0.735582 0.457760 0.249366
0.754469 0.461093 0.252558
0.773387 0.464428 0.255751
0.193839 0.384888 0.164684
0.211823 0.388201 0.167851
0.229838 0.391514 0.171019
0.247883 0.394828 0.174188
0.265960 0.398144 0.177358
0.284066 0.401460 0.180529
0.302204 0.404777 0.183701
0.320372 0.408095 0.186873
0.338571 0.411415 0.190047
0.356801 0.414735 0.193222
0.375061 0.418056 0.196397
0.393352 0.421378 0.199574
0.411674 0.424701 0.202751
0.430026 0.428025 0.205930
0.448410 0.431350 0.209109
0.466824 0.434676 0.212290
0.485268 0.438003 0.215471
0.503744 0.441331 0.218653
0.522250 0.444660 0.221836
0.540787 0.447990 0.225021
0.559354 0.451321 0.228206
0.577952 0.454653 0.231392
0.596581 0.457985 0.234579
0.615241 0.461319 0.237767
0.633931 0.464654 0.240956
0.652652 0.467990 0.244145
0.671404 0.471326 0.247336
0.690187 0.474664 0.250528
0.709000 0.478003 0.253721
0.727844 0.481342 0.256914
0.746718 0.484683 0.260109
0.765624 0.488025 0.263304
0.784560 0.491367 0.266501
0.204443 0.411640 0.175342
0.222445 0.414960 0.178512
0.240478 0.418281 0.181683
0.258541 0.421603 0.184856
0.276635 0.424926 0.188029
0.294760 0.428250 0.191203
0.312916 0.431575 0.194378
0.331102 0.434902 0.197554
0.349319 0.438229 0.200731
0.367567 0.441557 0.203908
0.385846 0.444886 0.207087
0.404155 0.448216 0.210267
0.422495 0.451546 0.213448
0.440865 0.454878 0.216629
0.459267 0.458211 0.219812
0.477699 0.461545 0.222996
0.496161 0.464880 0.226180
0.514655 0.468216 0.229365
0.533179 0.471552 0.232552
0.551734 0.474890 0.235739
0.570320 0.478229 0.238928
0.588936 0.481569 0.242117
0.607583 0.484909 0.245307
0.626261 0.488251 0.248498
0.644969 0.491594 0.251690
0.663708 0.494937 0.254883
0.682478 0.498282 0.258077
0.701279 0.501627 0.261272
0.720110 0.504974 0.264468
0.738972 0.508321 0.267665
0.757865 0.511670 0.270863
0.776789 0.515019 0.274061
0.795743 0.518369 0.277261
0.215057 0.438454 0.186011
0.233077 0.441782 0.189184
0.251128 0.445111 0.192359
0.269209 0.448441 0.195534
0.287322 0.451772 0.198710
0.305465 0.455104 0.201887
0.323639 0.458437 0.205066
0.341843 0.461771 0.208245
0.360078 0.465106 0.211425
0.378344 0.468442 0.214606
0.396641 0.471779 0.217788
0.414968 0.475116 0.220971
0.433326 0.478455 0.224155
0.451715 0.481795 0.227340
0.470134 0.485136 0.230525
0.488584 0.488477 0.233712
0.507065 0.491820 0.236900
0.525577 0.495164 0.240089
0.544119 0.498508 0.243278
0.562692 0.501854 0.246469
0.581296 0.505200 0.249660
0.599930 0.508548 0.252853
0.618596 0.511896 0.256046
0.637291 0.515246 0.259240
0.656018 0.518596 0.262436
0.674775 0.521948 0.265632
0.693563 0.525300 0.268829
0.712382 0.528654 0.272027
0.731232 0.532008 0.275226
0.750112 0.535363 0.278426
0.769023 0.538720 0.281627
0.787964 0.542077 0.284829
0.806936 0.545435 0.288032
0.225681 0.465332 0.196690
0.243720 0.468668 0.199867
0.261789 0.472005 0.203044
0.279889 0.475342 0.206223
0.298019 0.478681 0.209402
0.316180 0.482021 0.212583
0.334372 0.485362 0.215764
0.352595 0.488704 0.218947
0.370848 0.492046 0.222130
0.389132 0.495390 0.225314
0.407447 0.498735 0.228499
0.425792 0.502080 0.231685
0.444168 0.505427 0.234873
0.462575 0.508775 0.238061
0.481013 0.512123 0.241250
0.499481 0.515473 0.244440
0.517980 0.518823 0.247630
0.536510 0.522175 0.250822
0.555070 0.525527 0.254015
0.573661 0.528881 0.257209
0.592283 0.532235 0.260403
0.610936 0.535591 0.263599
0.629619 0.538947 0.266796
0.648333 0.542304 0.269993
0.667078 0.545663 0.273192
0.685853 0.549022 0.276391
0.704659 0.552382 0.279591
0.723496 0.555743 0.282793
0.742363 0.559106 0.285995
0.761262 0.562469 0.289198
0.780191 0.565833 0.292402
0.799150 0.569198 0.295608
0.818141 0.572564 0.298814
0.236317 0.492273 0.207380
0.254373 0.495617 0.210560
0.272460 0.498961 0.213741
0.290578 0.502307 0.216923
0.308727 0.505654 0.220105
0.326906 0.509001 0.223289
0.345116 0.512350 0.226474
0.363357 0.515700 0.229659
0.381628 0.519050 0.232846
0.399930 0.522402 0.236033
0.418263 0.525754 0.239222
0.436627 0.529108 0.242411
0.455021 0.532462 0.245601
0.473446 0.535818 0.248792
0.491902 0.539174 0.251985
0.510388 0.542532 0.255178
0.528905 0.545890 0.258372
0.547453 0.549249 0.261567
0.566032 0.552610 0.264763
0.584641 0.555971 0.267960
0.603281 0.559333 0.271158
0.621951 0.562697 0.274356
0.640653 0.566061 0.277556
0.659385 0.569426 0.280757
0.678148 0.572792 0.283959
0.696941 0.576159 0.287161
0.715765 0.579527 0.290365
0.734620 0.582897 0.293569
0.753506 0.586267 0.296775
0.772422 0.589638 0.299981
0.791370 0.593010 0.303188
0.810347 0.596383 0.306397
0.829356 0.599757 0.309606
0.246963 0.519277 0.218081
0.265038 0.522629 0.221264
0.283143 0.525982 0.224448
0.301279 0.529335 0.227633
0.319445 0.532690 0.230819
0.337643 0.536045 0.234006
0.355871 0.539402 0.237194
0.374130 0.542759 0.240383
0.392419 0.546118 0.243572
0.410739 0.549477 0.246763
0.429090 0.552837 0.249954
0.447472 0.556199 0.253147
0.465884 0.559561 0.256340
0.484328 0.562924 0.259535
0.502801 0.566289 0.262730
0.521306 0.569654 0.265927
0.539841 0.573020 0.269124
0.558407 0.576387 0.272322
0.577004 0.579756 0.275521
0.595631 0.583125 0.278721
0.614289 0.586495 0.281922
0.632978 0.589866 0.285124
0.651697 0.593238 0.288327
0.670448 0.596611 0.291531
0.689229 0.599985 0.294736
0.708040 0.603360 0.297942
0.726883 0.606736 0.301149
0.745756 0.610113 0.304356
0.764659 0.613491 0.307565
0.783594 0.616870 0.310775
0.802559 0.620250 0.313985
0.821555 0.623631 0.317197
0.840582 0.627012 0.320409
0.257620 0.546345 0.228793
0.275712 0.549705 0.231979
0.293836 0.553065 0.235166
0.311990 0.556427 0.238355
0.330175 0.559789 0.241544
0.348390 0.563152 0.244734
0.366636 0.566517 0.247925
0.384913 0.569882 0.251117
0.403221 0.573248 0.254309
0.421559 0.576616 0.257503
0.439928 0.579984 0.260698
0.458328 0.583353 0.263894
0.476759 0.586723 0.267090
0.495220 0.590094 0.270288
0.513712 0.593467 0.273487
0.532234 0.596840 0.276686
0.550788 0.600214 0.279887
0.569372 0.603589 0.283088
0.587987 0.606965 0.286290
0.606632 0.610342 0.289494
0.625308 0.613720 0.292698
0.644015 0.617099 0.295903
0.662753 0.620479 0.299109
0.681521 0.623860 0.302316
0.700320 0.627241 0.305524
0.719150 0.630624 0.308733
0.738010 0.634008 0.311943
0.756901 0.637393 0.315154
0.775823 0.640779 0.318366
0.794776 0.644165 0.321579
0.813759 0.647553 0.324793
0.832773 0.650942 0.328007
0.851818 0.654331 0.331223
0.268287 0.573476 0.239516
0.286398 0.576844 0.242705
0.304539 0.580212 0.245895
0.322712 0.583581 0.249087
0.340915 0.586952 0.252279
0.359148 0.590323 0.255472
0.377412 0.593695 0.258666
0.395708 0.597068 0.261861
0.414033 0.600442 0.265057
0.432390 0.603817 0.268254
0.450777 0.607193 0.271452
0.469195 0.610571 0.274651
0.487643 0.613949 0.277851
0.506123 0.617328 0.281052
0.524633 0.620708 0.284254
0.543174 0.624089 0.287456
0.561745 0.627470 0.290660
0.580347 0.630853 0.293865
0.598980 0.634237 0.297070
0.617644 0.637622 0.300277
0.636338 0.641008 0.303484
0.655063 0.644395 0.306693
0.673819 0.647783 0.309902
0.692605 0.651171 0.313112
0.711422 0.654561 0.316323
0.730270 0.657952 0.319536
0.749149 0.661343 0.322749
0.768058 0.664736 0.325963
0.786998 0.668130 0.329178
0.805969 0.671524 0.332394
0.824970 0.674920 0.335611
0.844002 0.678316 0.338829
0.863065 0.681714 0.342048
0.278965 0.600671 0.250249
0.297094 0.604046 0.253441
0.315254 0.607422 0.256635
0.333444 0.610799 0.259829
0.351665 0.614177 0.263025
0.369917 0.617557 0.266221
0.388199 0.620937 0.269419
0.406512 0.624318 0.272617
0.424856 0.627700 0.275816
0.443231 0.631083 0.279016
0.461636 0.634467 0.282218
0.480072 0.637851 0.285420
0.498539 0.641237 0.288623
0.517036 0.644624 0.291827
0.535565 0.648012 0.295032
0.554123 0.651401 0.298237
0.572713 0.654791 0.301444
0.591333 0.658181 0.304652
0.609984 0.661573 0.307861
0.628666 0.664966 0.311071
0.647378 0.668360 0.314281
0.666121 0.671754 0.317493
0.684895 0.675150 0.320705
0.703700 0.678546 0.323919
0.722535 0.681944 0.327133
0.741401 0.685343 0.330349
0.760298 0.688742 0.333565
0.779225 0.692143 0.336782
0.798183 0.695544 0.340001
0.817172 0.698946 0.343220
0.836192 0.702350 0.346440
0.855242 0.705754 0.349661
0.874323 0.709160 0.352883
0.289654 0.627929 0.260993
0.307801 0.631312 0.264188
0.325979 0.634696 0.267385
0.344187 0.638081 0.270583
0.362426 0.641467 0.273782
0.380696 0.644854 0.276981
0.398997 0.648242 0.280182
0.417328 0.651630 0.283383
0.435690 0.655020 0.286586
0.454083 0.658411 0.289789
0.472506 0.661803 0.292993
0.490960 0.665196 0.296199
0.509445 0.668589 0.299405
0.527961 0.671984 0.302612
0.546507 0.675380 0.305820
0.565084 0.678777 0.309029
0.583692 0.682174 0.312239
0.602330 0.685573 0.315450
0.620999 0.688972 0.318662
0.639699 0.692373 0.321875
0.658429 0.695774 0.325089
0.677191 0.699177 0.328304
0.695983 0.702580 0.331519
0.714805 0.705985 0.334736
0.733659 0.709390 0.337954
0.752543 0.712797 0.341172
0.771458 0.716204 0.344392
0.790403 0.719612 0.347612
0.809379 0.723022 0.350834
0.828386 0.726432 0.354056
0.847424 0.729843 0.357280
0.866492 0.733256 0.360504
0.885591 0.736669 0.363729
0.300354 0.655250 0.271747
0.318519 0.658641 0.274946
0.336715 0.662033 0.278146
0.354941 0.665426 0.281347
0.373198 0.668819 0.284549
0.391486 0.672214 0.287752
0.409805 0.675610 0.290955
0.428154 0.679007 0.294160
0.446535 0.682404 0.297366
0.464945 0.685803 0.300572
0.483387 0.689203 0.303780
0.501859 0.692603 0.306988
0.520362 0.696005 0.310198
0.538896 0.699407 0.313408
0.557460 0.702811 0.316620
0.576055 0.706216 0.319832
0.594681 0.709621 0.323045
0.613337 0.713027 0.326259
0.632025 0.716435 0.329474
0.650743 0.719843 0.332690
0.669491 0.723253 0.335907
0.688271 0.726663 0.339125
0.707081 0.730074 0.342344
0.725921 0.733487 0.345564
0.744793 0.736900 0.348785
0.763695 0.740314 0.352007
0.782628 0.743729 0.355230
0.801592 0.747146 0.358453
0.820586 0.750563 0.361678
0.839611 0.753981 0.364903
0.858667 0.757400 0.368130
0.877753 0.760820 0.371357
0.896871 0.764241 0.374586
0.311064 0.682634 0.282513
0.329247 0.686033 0.285715
0.347461 0.689433 0.288918
0.365706 0.692834 0.292122
0.383981 0.696235 0.295327
0.402287 0.699638 0.298533
0.420624 0.703042 0.301740
0.438991 0.706446 0.304948
0.457390 0.709852 0.308157
0.475819 0.713258 0.311367
0.494278 0.716666 0.314577
0.512769 0.720074 0.317789
0.531290 0.723484 0.321002
0.549841 0.726894 0.324215
0.568424 0.730305 0.327430
0.587037 0.733718 0.330645
0.605681 0.737131 0.333862
0.624356 0.740546 0.337079
0.643061 0.743961 0.340297
0.661797 0.747377 0.343517
0.680564 0.750794 0.346737
0.699361 0.754213 0.349958
0.718189 0.757632 0.353180
0.737048 0.761052 0.356403
0.755938 0.764473 0.359627
0.774858 0.767895 0.362852
0.793809 0.771318 0.366078
0.812791 0.774742 0.369305
0.831803 0.778167 0.372533
0.850847 0.781593 0.375761
0.869921 0.785020 0.378991
0.889025 0.788448 0.382222
0.908160 0.791877 0.385453
0.321785 0.710082 0.293289
0.339986 0.713489 0.296494
0.358218 0.716897 0.299701
0.376481 0.720305 0.302908
0.394774 0.723715 0.306116
0.413099 0.727125 0.309325
0.431453 0.730537 0.312535
0.449839 0.733949 0.315746
0.468255 0.737362 0.318958
0.486702 0.740777 0.322171
0.505180 0.744192 0.325385
0.523689 0.747609 0.328600
0.542228 0.751026 0.331816
0.560798 0.754444 0.335033
0.579398 0.757863 0.338250
0.598030 0.761284 0.341469
0.616692 0.764705 0.344689
0.635384 0.768127 0.347909
0.654108 0.771550 0.351131
0.672862 0.774974 0.354353
0.691647 0.778399 0.357577
0.710462 0.781825 0.360801
0.729309 0.785252 0.364026
0.748186 0.788680 0.367253
0.767094 0.792109 0.370480
0.786032 0.795539 0.373708
0.805001 0.798970 0.376937
