luts/ili-forte.cube
TITLE "ili — dessaturado forte"
LUT_3D_SIZE 5
DOMAIN_MIN 0 0 0
DOMAIN_MAX 1 1 1
0.010000 0.010000 0.010000
0.121090 0.052095 0.052095
0.227732 0.090157 0.090157
0.336076 0.127479 0.127479
0.446122 0.165015 0.165015
0.141120 0.210082 0.141120
0.248084 0.248084 0.178732
0.356749 0.286298 0.216558
0.467117 0.324724 0.254595
0.579187 0.363364 0.292846
0.268496 0.409749 0.268496
0.377484 0.448855 0.306824
0.488173 0.488173 0.345365
0.600565 0.527704 0.384118
0.714658 0.567448 0.423083
0.398279 0.615151 0.398279
0.509290 0.655361 0.437322
0.622004 0.695784 0.476578
0.736419 0.736419 0.516046
0.852536 0.777267 0.555728
0.530468 0.826288 0.530468
0.643503 0.867602 0.570227
0.758240 0.909129 0.610198
0.874680 0.950868 0.650382
0.992821 0.992821 0.690778
0.024296 0.024296 0.096442
0.133801 0.065626 0.133801
0.240647 0.102808 0.171372
0.349195 0.140203 0.209155
0.459445 0.177810 0.247152
0.153870 0.222964 0.222964
0.261037 0.261037 0.261037
0.369907 0.299324 0.299324
0.480480 0.337823 0.337823
0.592754 0.376534 0.376534
0.281489 0.423006 0.351892
0.390681 0.462184 0.390681
0.501574 0.501574 0.429682
0.614170 0.541178 0.468896
0.728468 0.580993 0.508323
0.411515 0.628783 0.483226
0.522730 0.669065 0.522730
0.635648 0.709560 0.562447
0.750267 0.750267 0.602377
0.866589 0.791187 0.642519
0.543947 0.840294 0.616966
0.657186 0.881681 0.657186
0.772127 0.923280 0.697618
0.888771 0.965092 0.738263
1.000000 1.000000 0.779121
0.038591 0.038591 0.177735
0.146536 0.078229 0.215555
0.253587 0.115484 0.253587
0.362339 0.152950 0.291832
0.472794 0.190630 0.330289
0.166644 0.235870 0.305808
0.274016 0.274016 0.344343
0.383090 0.312374 0.383090
0.493867 0.350946 0.422050
0.606345 0.389729 0.461223
0.294506 0.436287 0.436287
0.403902 0.475537 0.475537
0.515000 0.515000 0.515000
0.627800 0.554675 0.554675
0.742302 0.594563 0.594563
0.424774 0.642439 0.569173
0.536194 0.682793 0.609138
0.649316 0.723360 0.649316
0.764140 0.764140 0.689707
0.880666 0.805132 0.730310
0.557449 0.854326 0.704465
0.670893 0.895784 0.745145
0.786039 0.937456 0.786039
0.902887 0.979340 0.827145
1.000000 1.000000 0.868464
0.052887 0.052887 0.260028
0.159296 0.090857 0.298309
0.266551 0.128184 0.336802
0.375508 0.165723 0.375508
0.486167 0.203474 0.414426
0.179442 0.248801 0.389652
0.287019 0.287019 0.428648
0.396297 0.325449 0.467857
0.507278 0.364093 0.507278
0.619961 0.402949 0.546912
0.307547 0.449593 0.521683
0.417148 0.488915 0.561394
0.528450 0.528450 0.601318
0.641455 0.568198 0.641455
0.756161 0.608158 0.681804
0.438059 0.656120 0.656120
0.549683 0.696546 0.696546
0.663009 0.737186 0.737186
0.778038 0.778038 0.778038
0.894768 0.819102 0.819102
0.570977 0.868381 0.792963
0.684625 0.909912 0.834105
0.799975 0.951656 0.875460
0.917027 0.993612 0.917027
1.000000 1.000000 0.958807
0.066324 0.066324 0.343321
0.172081 0.103510 0.382063
0.279540 0.140908 0.421017
0.388701 0.178520 0.460184
0.499564 0.216344 0.499564
0.192265 0.261756 0.474496
0.300046 0.300046 0.513954
0.409529 0.338549 0.553623
0.520714 0.377265 0.593506
0.633601 0.416193 0.633601
0.320613 0.462923 0.608078
0.430418 0.502318 0.648251
0.541925 0.541925 0.688636
0.655134 0.581745 0.729234
0.770044 0.621777 0.770044
0.451368 0.669825 0.744067
0.563196 0.710324 0.784955
0.676727 0.751035 0.826055
0.791959 0.791959 0.867368
0.908894 0.833096 0.908894
0.584529 0.882462 0.882462
0.698381 0.924065 0.924065
0.813935 0.965881 0.965881
0.931192 1.000000 1.000000
1.000000 1.000000 1.000000
