luts/ili-quente.cube
TITLE "ili — dessaturado quente"
LUT_3D_SIZE 9
DOMAIN_MIN 0 0 0
DOMAIN_MAX 1 1 1
0.044550 0.015000 0.014625
0.117620 0.028952 0.028228
0.189217 0.042672 0.041605
0.261306 0.055519 0.054131
0.333886 0.068381 0.066671
0.406957 0.081259 0.079227
0.480520 0.094152 0.091798
0.554574 0.107061 0.104385
0.629119 0.119986 0.116986
0.088393 0.120862 0.058694
0.159789 0.133803 0.071241
0.231676 0.146760 0.083802
0.304054 0.159732 0.096379
0.376924 0.172720 0.108971
0.450285 0.185724 0.121578
0.524138 0.198743 0.134200
0.598482 0.211778 0.146837
0.673317 0.224828 0.159490
0.130444 0.225712 0.100961
0.202129 0.238779 0.113559
0.274306 0.251862 0.126171
0.346974 0.264960 0.138799
0.420134 0.278073 0.151442
0.493785 0.291202 0.164100
0.567927 0.304347 0.176773
0.642561 0.317507 0.189462
0.717686 0.330683 0.202165
0.172665 0.331576 0.143400
0.244640 0.344769 0.156049
0.317107 0.357977 0.168712
0.390065 0.371201 0.181391
0.463514 0.384440 0.194085
0.537455 0.397695 0.206794
0.611887 0.410965 0.219519
0.686811 0.424251 0.232258
0.762226 0.437552 0.245013
0.215057 0.438454 0.186011
0.287322 0.451772 0.198710
0.360078 0.465106 0.211425
0.433326 0.478455 0.224155
0.507065 0.491820 0.236900
0.581296 0.505200 0.249660
0.656018 0.518596 0.262436
0.731232 0.532008 0.275226
0.806936 0.545435 0.288032
0.257620 0.546345 0.228793
0.330175 0.559789 0.241544
0.403221 0.573248 0.254309
0.476759 0.586723 0.267090
0.550788 0.600214 0.279887
0.625308 0.613720 0.292698
0.700320 0.627241 0.305524
0.775823 0.640779 0.318366
0.851818 0.654331 0.331223
0.300354 0.655250 0.271747
0.373198 0.668819 0.284549
0.446535 0.682404 0.297366
0.520362 0.696005 0.310198
0.594681 0.709621 0.323045
0.669491 0.723253 0.335907
0.744793 0.736900 0.348785
0.820586 0.750563 0.361678
0.896871 0.764241 0.374586
0.343259 0.765168 0.314873
0.416393 0.778863 0.327726
0.490019 0.792574 0.340594
0.564136 0.806300 0.353477
0.638745 0.820042 0.366375
0.713845 0.833799 0.379289
0.789437 0.847572 0.392218
0.865520 0.861361 0.405161
0.942094 0.875165 0.418120
0.386334 0.876100 0.358171
0.459759 0.889921 0.371075
0.533675 0.903757 0.383994
0.608082 0.917609 0.396928
0.682980 0.931476 0.409878
0.758370 0.945359 0.422842
0.834252 0.959258 0.435822
0.910624 0.973172 0.448817
0.987489 0.987102 0.461827
0.049146 0.019738 0.079771
0.121869 0.033690 0.092343
0.193496 0.047033 0.104930
0.265613 0.059885 0.117532
0.338223 0.072753 0.130149
0.411323 0.085636 0.142782
0.484915 0.098534 0.155429
0.558999 0.111449 0.168092
0.633573 0.124379 0.180770
0.092631 0.125255 0.122124
0.164056 0.138202 0.134747
0.235972 0.151164 0.147385
0.308379 0.164141 0.160038
0.381278 0.177135 0.172706
0.454669 0.190143 0.185390
0.528551 0.203168 0.198089
0.602924 0.216208 0.210803
0.677788 0.229263 0.223532
0.134698 0.230148 0.164648
0.206413 0.243220 0.177322
0.278619 0.256308 0.190011
0.351316 0.269411 0.202716
0.424505 0.282530 0.215435
0.498185 0.295665 0.228170
0.572357 0.308815 0.240920
0.647020 0.321980 0.253685
0.722174 0.335161 0.266465
0.176936 0.336055 0.207344
0.248941 0.349253 0.220070
0.321437 0.362466 0.232810
0.394424 0.375695 0.245565
0.467903 0.388939 0.258336
0.541873 0.402200 0.271121
0.616334 0.415475 0.283922
0.691287 0.428766 0.296738
0.766732 0.442073 0.309570
0.219346 0.442975 0.250213
0.291640 0.456299 0.262989
0.364426 0.469638 0.275780
0.437703 0.482992 0.288586
0.511471 0.496362 0.301408
0.585731 0.509748 0.314245
0.660483 0.523149 0.327097
0.735725 0.536566 0.339964
0.811459 0.549999 0.352847
0.261926 0.550909 0.293253
0.334510 0.564358 0.306080
0.407586 0.577823 0.318922
0.481153 0.591303 0.331780
0.555211 0.604799 0.344652
0.629761 0.618310 0.357540
0.704802 0.631837 0.370443
0.780334 0.645379 0.383362
0.856358 0.658938 0.396295
0.304677 0.659856 0.336464
0.377551 0.673431 0.349343
0.450917 0.687021 0.362236
0.524773 0.700627 0.375145
0.599122 0.714249 0.388069
0.673961 0.727886 0.401008
0.749292 0.741538 0.413962
0.825114 0.755206 0.426931
0.901428 0.768890 0.439916
0.347599 0.769817 0.379848
0.420763 0.783518 0.392777
0.494418 0.797234 0.405722
0.568565 0.810965 0.418682
0.643203 0.824712 0.431656
0.718332 0.838475 0.444647
0.793953 0.852253 0.457652
0.870065 0.866047 0.470672
0.946669 0.879856 0.483708
0.390692 0.880792 0.423404
0.464146 0.894618 0.436384
0.538091 0.908460 0.449380
0.612528 0.922317 0.462390
0.687455 0.936189 0.475416
0.762875 0.950078 0.488457
0.838785 0.963981 0.501514
0.915187 0.977901 0.514585
0.992081 0.991836 0.527672
0.053742 0.024476 0.143329
0.126120 0.038428 0.155977
0.197776 0.051396 0.168641
0.269923 0.064253 0.181319
0.342561 0.077126 0.194013
0.415691 0.090014 0.206722
0.489312 0.102918 0.219447
0.563425 0.115838 0.232186
0.638029 0.128773 0.244941
0.096870 0.129650 0.185939
0.168324 0.142602 0.198638
0.240269 0.155569 0.211353
0.312706 0.168552 0.224083
0.385634 0.181551 0.236828
0.459054 0.194565 0.249588
0.532965 0.207594 0.262363
0.607368 0.220640 0.275154
0.682261 0.233701 0.287960
0.138954 0.234586 0.228721
0.210698 0.247663 0.241472
0.282934 0.260756 0.254237
0.355660 0.273865 0.267018
0.428878 0.286989 0.279814
0.502588 0.300129 0.292626
0.576789 0.313284 0.305452
0.651481 0.326455 0.318294
0.726665 0.339641 0.331150
0.181210 0.340535 0.271675
0.253244 0.353738 0.284477
0.325769 0.366957 0.297293
0.398785 0.380191 0.310125
0.472293 0.393441 0.322973
0.546293 0.406706 0.335835
0.620783 0.419987 0.348712
0.695766 0.433284 0.361605
0.771239 0.446596 0.374513
0.223637 0.447498 0.314801
0.295960 0.460827 0.327653
0.368775 0.474171 0.340521
0.442081 0.487531 0.353404
0.515879 0.500906 0.366303
0.590168 0.514297 0.379216
0.664949 0.527704 0.392145
0.740221 0.541126 0.405088
0.815984 0.554564 0.418047
0.266234 0.555475 0.358098
0.338847 0.568929 0.371002
0.411952 0.582399 0.383921
0.485548 0.595884 0.396855
0.559636 0.609385 0.409804
0.634215 0.622902 0.422769
0.709285 0.636434 0.435749
0.784847 0.649982 0.448743
0.860900 0.663545 0.461753
0.309002 0.664465 0.401568
0.381906 0.678045 0.414523
0.455300 0.691640 0.427493
0.529186 0.705251 0.440478
0.603564 0.718878 0.453478
0.678433 0.732520 0.466494
0.753793 0.746178 0.479524
0.829645 0.759852 0.492570
0.905988 0.773541 0.505631
0.351942 0.774468 0.445209
0.425135 0.788174 0.458215
0.498819 0.801895 0.471236
0.572995 0.815632 0.484272
0.647663 0.829384 0.497324
0.722821 0.843152 0.510390
0.798471 0.856936 0.523472
0.874613 0.870735 0.536569
0.951246 0.884549 0.549681
0.395052 0.885486 0.489022
0.468535 0.899317 0.502079
0.542509 0.913164 0.515151
0.616975 0.927026 0.528239
0.691932 0.940904 0.541341
0.767381 0.954798 0.554459
0.843321 0.968707 0.567592
0.919752 0.982631 0.580740
0.996675 0.996572 0.593903
0.058338 0.029214 0.207273
0.130373 0.042913 0.219998
0.202058 0.055760 0.232738
0.274234 0.068623 0.245493
0.346902 0.081501 0.258264
0.420061 0.094395 0.271049
0.493711 0.107304 0.283850
0.567853 0.120229 0.296666
0.642487 0.133170 0.309497
0.101110 0.134047 0.250141
0.172594 0.147004 0.262917
0.244568 0.159977 0.275708
0.317035 0.172965 0.288514
0.389992 0.185969 0.301336
0.463441 0.198988 0.314172
0.537381 0.212023 0.327024
0.611813 0.225074 0.339892
0.686736 0.238140 0.352774
0.143212 0.239025 0.293180
0.214985 0.252108 0.306007
0.287250 0.265206 0.318850
0.360006 0.278320 0.331707
0.433253 0.291450 0.344580
0.506992 0.304595 0.357468
0.581222 0.317755 0.370371
0.655944 0.330931 0.383289
0.731157 0.344123 0.396222
0.185485 0.345017 0.336392
0.257548 0.358226 0.349270
0.330103 0.371450 0.362163
0.403148 0.384689 0.375072
0.476686 0.397944 0.387996
0.550714 0.411215 0.400934
0.625234 0.424501 0.413889
0.700246 0.437803 0.426858
0.775748 0.451120 0.439842
0.227929 0.452023 0.379775
0.300282 0.465357 0.392704
0.373126 0.478706 0.405649
0.446462 0.492072 0.418608
0.520289 0.505452 0.431583
0.594607 0.518849 0.444573
0.669417 0.532260 0.457578
0.744718 0.545688 0.470599
0.820511 0.559131 0.483634
0.270544 0.560042 0.423330
0.343186 0.573502 0.436311
0.416320 0.586977 0.449306
0.489946 0.600468 0.462317
0.564063 0.613974 0.475343
0.638671 0.627496 0.488384
0.713771 0.641033 0.501440
0.789362 0.654587 0.514511
0.865444 0.668155 0.527598
0.313329 0.669075 0.467057
0.386262 0.682660 0.480089
0.459686 0.696261 0.493135
0.533601 0.709877 0.506197
0.608008 0.723509 0.519274
0.682906 0.737157 0.532366
0.758295 0.750820 0.545473
0.834176 0.764499 0.558596
0.910549 0.778193 0.571734
0.356286 0.779121 0.510956
0.429508 0.792832 0.524039
0.503222 0.806559 0.537136
0.577427 0.820301 0.550249
0.652124 0.834058 0.563377
0.727312 0.847831 0.576520
0.802991 0.861620 0.589679
0.879162 0.875425 0.602852
0.955824 0.889244 0.616041
0.399414 0.890181 0.555027
0.472926 0.904018 0.568160
0.546929 0.917870 0.581309
0.621424 0.931737 0.594473
0.696411 0.945621 0.607652
0.771888 0.959520 0.620846
0.847858 0.973434 0.634056
0.924318 0.987364 0.647280
1.000000 1.000000 0.660520
0.062934 0.033953 0.271603
0.134627 0.047275 0.284404
0.206342 0.060127 0.297221
0.278547 0.072995 0.310053
0.351244 0.085878 0.322900
0.424432 0.098777 0.335762
0.498112 0.111692 0.348640
0.572283 0.124622 0.361532
0.646946 0.137568 0.374440
0.105353 0.138445 0.314728
0.176865 0.151408 0.327581
0.248869 0.164386 0.340449
0.321365 0.177379 0.353332
0.394352 0.190388 0.366230
0.467830 0.203413 0.379143
0.541799 0.216453 0.392072
0.616260 0.229509 0.405015
0.691213 0.242580 0.417974
0.147472 0.243466 0.358026
0.219274 0.256554 0.370929
0.291568 0.269658 0.383848
0.364354 0.282777 0.396782
0.437630 0.295912 0.409731
0.511398 0.309062 0.422696
0.585658 0.322228 0.435675
0.660408 0.335410 0.448670
0.735651 0.348607 0.461680
0.189762 0.349501 0.401495
0.261854 0.362715 0.414449
0.334438 0.375944 0.427419
0.407513 0.389189 0.440404
0.481080 0.402449 0.453405
0.555137 0.415725 0.466420
0.629687 0.429017 0.479451
0.704727 0.442324 0.492497
0.780259 0.455646 0.505558
0.232223 0.456549 0.445136
0.304605 0.469889 0.458141
0.377479 0.483244 0.471162
0.450844 0.496614 0.484199
0.524700 0.510000 0.497250
0.599048 0.523402 0.510317
0.673887 0.536819 0.523398
0.749217 0.550251 0.536495
0.825039 0.563700 0.549607
0.274855 0.564611 0.488948
0.347527 0.578076 0.502005
0.420691 0.591557 0.515077
0.494345 0.605053 0.528165
0.568491 0.618564 0.541267
0.643129 0.632092 0.554385
0.718258 0.645634 0.567518
0.793878 0.659193 0.580665
0.869990 0.672767 0.593829
0.317658 0.673687 0.532933
0.390620 0.687277 0.546041
0.464073 0.700883 0.559164
0.538018 0.714505 0.572302
0.612454 0.728142 0.585456
0.687381 0.741795 0.598625
0.762800 0.755464 0.611809
0.838710 0.769148 0.625008
0.915111 0.782847 0.638222
0.360632 0.783776 0.577089
0.433884 0.797492 0.590248
0.507627 0.811224 0.603423
0.581861 0.824971 0.616612
0.656587 0.838734 0.629817
0.731804 0.852512 0.643036
0.807513 0.866306 0.656271
0.883713 0.880116 0.669522
0.960404 0.893941 0.682787
0.403777 0.894878 0.621418
0.477318 0.908720 0.634628
0.551351 0.922578 0.647853
0.625875 0.936450 0.661094
0.700891 0.950339 0.674349
0.776398 0.964243 0.687620
0.852396 0.978163 0.700906
0.928886 0.992098 0.714207
1.000000 1.000000 0.727524
0.067530 0.038691 0.336319
0.138884 0.051637 0.349197
0.210627 0.064495 0.362090
0.282862 0.077368 0.374999
0.355588 0.090257 0.387923
0.428806 0.103161 0.400861
0.502515 0.116081 0.413815
0.576715 0.129017 0.426785
0.651407 0.141968 0.439769
0.109597 0.142846 0.379702
0.181139 0.155813 0.392631
0.253172 0.168797 0.405576
0.325697 0.181795 0.418535
0.398713 0.194810 0.431510
0.472220 0.207840 0.444500
0.546219 0.220885 0.457505
0.620709 0.233946 0.470525
0.695691 0.247023 0.483561
0.151734 0.247909 0.423257
0.223565 0.261003 0.436237
0.295888 0.274112 0.449233
0.368703 0.287236 0.462243
0.442009 0.300376 0.475269
0.515806 0.313532 0.488310
0.590095 0.326703 0.501366
0.664875 0.339890 0.514438
0.740146 0.353092 0.527524
0.194041 0.353987 0.466984
0.266162 0.367206 0.480015
0.338775 0.380440 0.493062
0.411880 0.393690 0.506123
0.485475 0.406956 0.519200
0.559562 0.420237 0.532292
0.634141 0.433534 0.545399
0.709211 0.446846 0.558522
0.784772 0.460174 0.571659
0.236519 0.461078 0.510882
0.308931 0.474422 0.523965
0.381833 0.487782 0.537062
0.455227 0.501158 0.550175
0.529113 0.514549 0.563303
0.603490 0.527956 0.576446
0.678358 0.541379 0.589604
0.753718 0.554817 0.602778
0.829569 0.568270 0.615967
0.279169 0.569182 0.554953
0.351870 0.582652 0.568086
0.425062 0.596138 0.581235
0.498746 0.609640 0.594399
0.572922 0.623157 0.607578
0.647588 0.636689 0.620772
0.722747 0.650237 0.633981
0.798396 0.663801 0.647206
0.874537 0.677380 0.660446
0.321989 0.678300 0.599195
0.394980 0.691896 0.612379
0.468462 0.705508 0.625579
0.542436 0.719135 0.638794
0.616901 0.732777 0.652024
0.691858 0.746435 0.665269
0.767306 0.760109 0.678530
0.843245 0.773798 0.691806
0.919676 0.787503 0.705096
0.364980 0.788432 0.643609
0.438261 0.802154 0.656845
0.512033 0.815891 0.670095
0.586297 0.829643 0.683361
0.661052 0.843411 0.696642
0.736298 0.857195 0.709939
0.812036 0.870995 0.723250
0.888265 0.884809 0.736577
0.964986 0.898640 0.749919
0.408142 0.899577 0.688195
0.481713 0.913424 0.701481
0.555775 0.927287 0.714783
0.630328 0.941165 0.728100
0.705373 0.955059 0.741433
0.780909 0.968969 0.754780
0.856937 0.982894 0.768143
0.933456 0.996834 0.781520
1.000000 1.000000 0.794913
0.071860 0.043155 0.401422
0.143142 0.056002 0.414376
0.214914 0.068865 0.427346
0.287178 0.081744 0.440331
0.359934 0.094638 0.453331
0.433181 0.107547 0.466347
0.506919 0.120473 0.479377
0.581149 0.133413 0.492423
0.655870 0.146370 0.505484
0.113843 0.147248 0.445062
0.185414 0.160221 0.458068
0.257477 0.173209 0.471089
0.330031 0.186213 0.484125
0.403076 0.199233 0.497176
0.476613 0.212268 0.510243
0.550641 0.225319 0.523324
0.625160 0.238386 0.536421
0.700171 0.251468 0.549533
0.155997 0.252354 0.488875
0.227858 0.265453 0.501932
0.300210 0.278567 0.515004
0.373054 0.291697 0.528091
0.446389 0.304842 0.541193
0.520215 0.318003 0.554311
0.594533 0.331179 0.567443
0.669343 0.344371 0.580591
0.744643 0.357579 0.593754
0.198321 0.358474 0.532859
0.270472 0.371698 0.545967
0.343114 0.384938 0.559090
0.416248 0.398194 0.572228
0.489873 0.411465 0.585382
0.563989 0.424751 0.598550
0.638597 0.438053 0.611734
0.713696 0.451371 0.624933
0.789287 0.464704 0.638147
0.240817 0.465608 0.577015
0.313258 0.478958 0.590174
0.386190 0.492323 0.603348
0.459613 0.505704 0.616538
0.533528 0.519101 0.629742
0.607934 0.532513 0.642962
0.682832 0.545941 0.656197
0.758221 0.559384 0.669447
0.834101 0.572843 0.682712
0.283483 0.573755 0.621343
0.356214 0.587231 0.634553
0.429436 0.600722 0.647778
0.503149 0.614228 0.661019
0.577354 0.627751 0.674274
0.652050 0.641288 0.687545
0.727237 0.654842 0.700831
0.802916 0.668411 0.714132
0.879086 0.681995 0.727449
0.326321 0.682916 0.665843
0.399341 0.696517 0.679104
0.472853 0.710134 0.692380
0.546856 0.723766 0.705672
0.621350 0.737414 0.718978
0.696336 0.751077 0.732300
0.771814 0.764756 0.745637
0.847782 0.778451 0.758990
0.924242 0.792161 0.772357
0.369329 0.793090 0.710515
0.442639 0.806817 0.723827
0.516441 0.820559 0.737154
0.590734 0.834317 0.750497
0.665518 0.848091 0.763854
0.740794 0.861880 0.777227
0.816561 0.875684 0.790615
0.892819 0.889505 0.804019
0.969569 0.903340 0.817437
0.412509 0.904278 0.755358
0.486109 0.918131 0.768721
0.560200 0.931998 0.782100
0.634783 0.945882 0.795493
0.709857 0.959781 0.808902
0.785422 0.973696 0.822326
0.861479 0.987626 0.835765
0.938028 1.000000 0.849220
1.000000 1.000000 0.862689
0.076091 0.047516 0.466910
0.147401 0.060369 0.479942
0.219203 0.073237 0.492988
0.291497 0.086121 0.506050
0.364281 0.099020 0.519126
0.437557 0.111935 0.532218
0.511325 0.124866 0.545325
0.585584 0.137812 0.558448
0.660334 0.150773 0.571585
0.118091 0.151652 0.510809
0.189691 0.164630 0.523891
0.261783 0.177624 0.536988
0.334366 0.190633 0.550101
0.407441 0.203658 0.563229
0.481007 0.216699 0.576372
0.555064 0.229755 0.589530
0.629613 0.242827 0.602703
0.704653 0.255914 0.615892
0.160262 0.256801 0.554879
0.232152 0.269905 0.568012
0.304533 0.283024 0.581161
0.377406 0.296159 0.594324
0.450771 0.309310 0.607503
0.524627 0.322476 0.620697
0.598974 0.335658 0.633907
0.673812 0.348855 0.647131
0.749142 0.362068 0.660371
0.202604 0.362964 0.599120
0.274784 0.376193 0.612305
0.347455 0.389438 0.625505
0.420618 0.402699 0.638719
0.494272 0.415975 0.651949
0.568418 0.429267 0.665195
0.643055 0.442574 0.678455
0.718183 0.455897 0.691731
0.793803 0.469236 0.705021
0.245116 0.470140 0.643534
0.317586 0.483495 0.656770
0.390548 0.496866 0.670020
0.464000 0.510252 0.683286
0.537944 0.523654 0.696567
0.612380 0.537071 0.709864
0.687307 0.550504 0.723175
0.762725 0.563953 0.736502
0.838635 0.577417 0.749844
0.287800 0.578330 0.688120
0.360560 0.591810 0.701406
0.433811 0.605307 0.714708
0.507553 0.618819 0.728025
0.581787 0.632346 0.741357
0.656513 0.645889 0.754705
0.731729 0.659448 0.768067
0.807437 0.673022 0.781445
0.883637 0.686612 0.794838
0.330655 0.687533 0.732877
0.403704 0.701140 0.746215
0.477245 0.714762 0.759568
0.551278 0.728399 0.772936
0.625801 0.742052 0.786319
0.700817 0.755721 0.799717
0.776323 0.769405 0.813131
0.852321 0.783105 0.826560
0.928810 0.796821 0.840004
0.373681 0.797750 0.777806
0.447020 0.811482 0.791195
0.520851 0.825230 0.804599
0.595173 0.838993 0.818018
0.669986 0.852772 0.831452
0.745291 0.866566 0.844902
0.821088 0.880376 0.858367
0.897376 0.894202 0.871847
0.974155 0.908043 0.885342
0.416877 0.908981 0.822907
0.490506 0.922838 0.836347
0.564627 0.936712 0.849802
0.639239 0.950601 0.863272
0.714342 0.964505 0.876758
0.789937 0.978425 0.890258
0.866023 0.992360 0.903774
0.942601 1.000000 0.917305
1.000000 1.000000 0.930851
0.080323 0.051879 0.532785
0.151663 0.064737 0.545893
0.223494 0.077611 0.559016
0.295816 0.090500 0.572154
0.368630 0.103404 0.585307
0.441936 0.116325 0.598476
0.515733 0.129260 0.611660
0.590021 0.142212 0.624859
0.664800 0.155179 0.638073
0.122340 0.156057 0.576941
0.193970 0.169041 0.590100
0.266091 0.182040 0.603274
0.338703 0.195055 0.616463
0.411807 0.208085 0.629668
0.485402 0.221131 0.642887
0.559489 0.234192 0.656122
0.634067 0.247269 0.669372
0.709136 0.260362 0.682637
0.164528 0.261249 0.621269
0.236448 0.274358 0.634479
0.308859 0.287483 0.647704
0.381761 0.300624 0.660944
0.455155 0.313779 0.674200
0.529040 0.326951 0.687470
0.603416 0.340138 0.700756
0.678284 0.353341 0.714057
0.753643 0.366559 0.727373
0.206888 0.367455 0.665768
0.279097 0.380689 0.679029
0.351797 0.393940 0.692305
0.424990 0.407206 0.705597
0.498673 0.420487 0.718903
0.572848 0.433784 0.732225
0.647514 0.447097 0.745562
0.722672 0.460425 0.758914
0.798321 0.473769 0.772281
0.249418 0.474674 0.710439
0.321917 0.488034 0.723752
0.394907 0.501410 0.737079
0.468389 0.514802 0.750421
0.542363 0.528209 0.763779
0.616827 0.541632 0.777152
0.691783 0.555070 0.790540
0.767231 0.568524 0.803943
0.843170 0.581993 0.817361
0.292119 0.582906 0.755283
0.364908 0.596392 0.768646
0.438188 0.609894 0.782024
0.511960 0.623411 0.795418
0.586223 0.636944 0.808826
0.660977 0.650492 0.822250
0.736223 0.664056 0.835689
0.811961 0.677636 0.849144
0.888189 0.691231 0.862613
0.334991 0.692152 0.800298
0.408069 0.705764 0.813712
0.481640 0.719391 0.827141
0.555701 0.733034 0.840586
0.630254 0.746692 0.854046
0.705299 0.760366 0.867521
0.780834 0.774056 0.881011
0.856862 0.787761 0.894516
0.933380 0.801482 0.908037
0.378034 0.802412 0.845484
0.451402 0.816149 0.858950
0.525262 0.829902 0.872430
0.599614 0.843671 0.885926
0.674456 0.857455 0.899437
0.749791 0.871254 0.912963
0.825616 0.885070 0.926504
0.901933 0.898900 0.940061
0.978742 0.912747 0.953632
0.421247 0.913685 0.890843
0.494906 0.927548 0.904359
0.569056 0.941427 0.917891
0.643697 0.955321 0.931438
0.718830 0.969230 0.945000
0.794454 0.983156 0.958577
0.870569 0.997097 0.972169
0.947176 1.000000 0.986048
1.000000 1.000000 1.000000
