luts/ili.cube
TITLE "ili — dessaturado suave"
LUT_3D_SIZE 9
DOMAIN_MIN 0 0 0
DOMAIN_MAX 1 1 1
0.015000 0.015000 0.015000
0.095691 0.027676 0.027676
0.174299 0.040353 0.040353
0.253567 0.052309 0.052309
0.333493 0.063861 0.063861
0.414078 0.075427 0.075427
0.495321 0.087008 0.087008
0.577224 0.098603 0.098603
0.659785 0.110213 0.110213
0.056513 0.123151 0.056513
0.134791 0.134791 0.068070
0.213729 0.146446 0.079642
0.293324 0.158115 0.091228
0.373579 0.169799 0.102828
0.454492 0.181497 0.114443
0.536064 0.193209 0.126072
0.618295 0.204936 0.137716
0.701184 0.216678 0.149375
0.095449 0.229763 0.095449
0.174056 0.241535 0.107055
0.253321 0.253321 0.118675
0.333246 0.265122 0.130310
0.413828 0.276938 0.141959
0.495070 0.288768 0.153622
0.576970 0.300612 0.165300
0.659529 0.312471 0.176993
0.742747 0.324344 0.188700
0.134549 0.337576 0.134549
0.213484 0.349479 0.146204
0.293078 0.361398 0.157872
0.373330 0.373330 0.169556
0.454242 0.385278 0.181253
0.535812 0.397239 0.192966
0.618040 0.409215 0.204692
0.700927 0.421206 0.216433
0.784473 0.433211 0.228189
0.173813 0.446589 0.173813
0.253076 0.458625 0.185516
0.332998 0.470675 0.197233
0.413579 0.482740 0.208965
0.494819 0.494819 0.220712
0.576717 0.506912 0.232472
0.659274 0.519020 0.244248
0.742489 0.531142 0.256038
0.826364 0.543279 0.267842
0.213240 0.556804 0.213240
0.292832 0.568972 0.224992
0.373082 0.581153 0.236758
0.453991 0.593350 0.248538
0.535559 0.605560 0.260333
0.617786 0.617786 0.272143
0.700671 0.630025 0.283967
0.784215 0.642280 0.295805
0.868418 0.654548 0.307658
0.252831 0.668220 0.252831
0.332751 0.680519 0.264631
0.413330 0.692833 0.276446
0.494567 0.705161 0.288275
0.576463 0.717503 0.300119
0.659018 0.729860 0.311977
0.742232 0.742232 0.323850
0.826104 0.754618 0.335737
0.910635 0.767018 0.347638
0.292585 0.780837 0.292585
0.372834 0.793268 0.304434
0.453741 0.805713 0.316298
0.535307 0.818173 0.328176
0.617531 0.830647 0.340068
0.700415 0.843136 0.351975
0.783956 0.855639 0.363896
0.868157 0.868157 0.375832
0.953017 0.880689 0.387782
0.332504 0.894655 0.332504
0.413080 0.907217 0.344401
0.494316 0.919795 0.356313
0.576210 0.932386 0.368240
0.658763 0.944992 0.380181
0.741974 0.957613 0.392136
0.825845 0.970248 0.404106
0.910374 0.982898 0.416091
0.995561 0.995561 0.428089
0.019305 0.019305 0.088034
0.099630 0.031981 0.099630
0.178272 0.044657 0.111241
0.257573 0.056231 0.122867
0.337532 0.067787 0.134507
0.418150 0.079358 0.146161
0.499427 0.090944 0.157830
0.581362 0.102544 0.169513
0.663957 0.114159 0.181211
0.060436 0.127103 0.127103
0.138748 0.138748 0.138748
0.217718 0.150407 0.150407
0.297347 0.162081 0.162081
0.377635 0.173770 0.173770
0.458581 0.185473 0.185473
0.540186 0.197190 0.197190
0.622450 0.208922 0.208922
0.705372 0.220669 0.220669
0.099389 0.233759 0.166335
0.178029 0.245536 0.178029
0.257327 0.257327 0.189737
0.337285 0.269133 0.201460
0.417901 0.280954 0.213197
0.499175 0.292788 0.224949
0.581109 0.304638 0.236715
0.663701 0.316501 0.248495
0.746952 0.328379 0.260290
0.138505 0.341617 0.205731
0.217474 0.353525 0.217474
0.297101 0.365449 0.229230
0.377386 0.377386 0.241002
0.458330 0.389338 0.252788
0.539934 0.401305 0.264588
0.622195 0.413286 0.276403
0.705116 0.425281 0.288232
0.788695 0.437291 0.300075
0.177785 0.450675 0.245291
0.257082 0.462716 0.257082
0.337037 0.474771 0.268888
0.417651 0.486840 0.280708
0.498924 0.498924 0.292542
0.580855 0.511022 0.304391
0.663445 0.523135 0.316254
0.746694 0.535262 0.328132
0.830602 0.547404 0.340024
0.217229 0.560935 0.285014
0.296854 0.573107 0.296854
0.377138 0.585294 0.308708
0.458080 0.597495 0.320577
0.539681 0.609711 0.332460
0.621941 0.621941 0.344358
0.704859 0.634185 0.356270
0.788436 0.646444 0.368196
0.872672 0.658718 0.380137
0.256837 0.672395 0.324901
0.336790 0.684699 0.336790
0.417402 0.697018 0.348693
0.498672 0.709351 0.360610
0.580602 0.721698 0.372542
0.663190 0.734060 0.384488
0.746437 0.746437 0.396449
0.830342 0.758827 0.408424
0.914906 0.771233 0.420413
0.296608 0.785057 0.364952
0.376889 0.797493 0.376889
0.457829 0.809943 0.388841
0.539428 0.822408 0.400807
0.621686 0.834887 0.412787
0.704603 0.847381 0.424782
0.788178 0.859889 0.436791
0.872412 0.872412 0.448815
0.957304 0.884949 0.460853
0.336542 0.898919 0.405167
0.417152 0.911487 0.417152
0.498421 0.924069 0.429152
0.580348 0.936666 0.441167
0.662934 0.949277 0.453196
0.746179 0.961902 0.465240
0.830082 0.974542 0.477298
0.914645 0.987197 0.489370
0.999866 0.999866 0.501457
0.023610 0.023610 0.158863
0.103572 0.036286 0.170548
0.182247 0.048606 0.182247
0.261581 0.060154 0.193960
0.341573 0.071715 0.205688
0.422224 0.083291 0.217431
0.503534 0.094882 0.229187
0.585503 0.106487 0.240959
0.668130 0.118106 0.252744
0.064361 0.131056 0.198228
0.142706 0.142706 0.209962
0.221709 0.154370 0.221709
0.301371 0.166049 0.233471
0.381692 0.177743 0.245248
0.462672 0.189451 0.257039
0.544310 0.201173 0.268844
0.626607 0.212910 0.280664
0.709562 0.224661 0.292499
0.103330 0.237757 0.237757
0.182003 0.249539 0.249539
0.261335 0.261335 0.261335
0.341326 0.273146 0.273146
0.421975 0.284971 0.284971
0.503283 0.296811 0.296811
0.585249 0.308665 0.308665
0.667874 0.320533 0.320533
0.751158 0.332417 0.332417
0.142463 0.345659 0.277449
0.221465 0.357573 0.289280
0.301125 0.369501 0.301125
0.381443 0.381443 0.312984
0.462421 0.393400 0.324858
0.544057 0.405372 0.336746
0.626352 0.417358 0.348649
0.709306 0.429358 0.360566
0.792918 0.441373 0.372498
0.181760 0.454763 0.317305
0.261090 0.466808 0.329184
0.341078 0.478868 0.341078
0.421725 0.490942 0.352986
0.503031 0.503031 0.364909
0.584995 0.515134 0.376846
0.667619 0.527252 0.388797
0.750901 0.539384 0.400763
0.834841 0.551531 0.412743
0.221220 0.565067 0.357325
0.300878 0.577244 0.369253
0.381195 0.589436 0.381195
0.462170 0.601642 0.393152
0.543805 0.613862 0.405123
0.626097 0.626097 0.417108
0.709049 0.638347 0.429108
0.792659 0.650611 0.441123
0.876928 0.662889 0.453152
0.260844 0.676572 0.397508
0.340830 0.688881 0.409485
0.421476 0.701205 0.421476
0.502779 0.713542 0.433481
0.584742 0.725895 0.445501
0.667363 0.738262 0.457535
0.750643 0.750643 0.469584
0.834582 0.763039 0.481647
0.919179 0.775449 0.493725
0.300632 0.789278 0.437855
0.380946 0.801719 0.449880
0.461920 0.814174 0.461920
0.543552 0.826644 0.473974
0.625843 0.839128 0.486042
0.708792 0.851627 0.498125
0.792401 0.864140 0.510223
0.876668 0.876668 0.522334
0.961593 0.889210 0.534461
0.340583 0.903186 0.478366
0.421226 0.915758 0.490440
0.502528 0.928345 0.502528
0.584488 0.940947 0.514630
0.667107 0.953563 0.526747
0.750385 0.966193 0.538879
0.834322 0.978838 0.551025
0.918917 0.991497 0.563186
1.000000 1.000000 0.575361
0.027915 0.027915 0.230229
0.107515 0.040591 0.242002
0.186223 0.052526 0.253789
0.265590 0.064078 0.265590
0.345616 0.075645 0.277406
0.426300 0.087226 0.289236
0.507643 0.098821 0.301081
0.589645 0.110431 0.312941
0.672305 0.122056 0.324815
0.068288 0.135011 0.269890
0.146666 0.146666 0.281711
0.225702 0.158335 0.293547
0.305397 0.170019 0.305397
0.385751 0.181717 0.317262
0.466764 0.193430 0.329141
0.548435 0.205157 0.341034
0.630765 0.216899 0.352942
0.713754 0.228655 0.364865
0.107273 0.241757 0.309715
0.185980 0.253543 0.321585
0.265344 0.265344 0.333469
0.345368 0.277160 0.345368
0.426050 0.288990 0.357281
0.507391 0.300835 0.369209
0.589391 0.312694 0.381151
0.672049 0.324567 0.393108
0.755367 0.336455 0.405079
0.146423 0.349704 0.349704
0.225457 0.361622 0.361622
0.305151 0.373555 0.373555
0.385503 0.385503 0.385503
0.466513 0.397464 0.397464
0.548182 0.409441 0.409441
0.630511 0.421432 0.421432
0.713497 0.433437 0.433437
0.797143 0.445457 0.445457
0.185736 0.458852 0.389856
0.265099 0.470902 0.401823
0.345120 0.482967 0.413805
0.425801 0.495046 0.425801
0.507140 0.507140 0.437811
0.589137 0.519248 0.449836
0.671794 0.531370 0.461876
0.755109 0.543508 0.473930
0.839083 0.555659 0.485998
0.225213 0.569201 0.430172
0.304904 0.581383 0.442187
0.385254 0.593579 0.454218
0.466262 0.605790 0.466262
0.547930 0.618016 0.478322
0.630256 0.630256 0.490395
0.713241 0.642510 0.502483
0.796884 0.654779 0.514586
0.881186 0.667062 0.526703
0.264853 0.680751 0.470651
0.344873 0.693065 0.482716
0.425551 0.705393 0.494795
0.506888 0.717736 0.506888
0.588884 0.730093 0.518996
0.671538 0.742465 0.531118
0.754851 0.754851 0.543255
0.838823 0.767252 0.555406
0.923453 0.779667 0.567572
0.304657 0.793502 0.511294
0.385005 0.805947 0.523407
0.466012 0.818408 0.535535
0.547677 0.830882 0.547677
0.630001 0.843371 0.559834
0.712984 0.855875 0.572005
0.796625 0.868393 0.584190
0.880925 0.880925 0.596390
0.965884 0.893472 0.608604
0.344625 0.907454 0.552101
0.425301 0.920031 0.564263
0.506636 0.932623 0.576439
0.588630 0.945230 0.588630
0.671282 0.957851 0.600835
0.754593 0.970486 0.613055
0.838563 0.983136 0.625289
0.923191 0.995800 0.637537
1.000000 1.000000 0.649800
0.032220 0.032220 0.302131
0.111460 0.044896 0.313991
0.190201 0.056448 0.325866
0.269601 0.068005 0.337756
0.349660 0.079576 0.349660
0.430377 0.091162 0.361578
0.511754 0.102763 0.373511
0.593789 0.114377 0.385459
0.676482 0.126007 0.397421
0.072216 0.138967 0.342088
0.150627 0.150627 0.353997
0.229697 0.162301 0.365921
0.309425 0.173990 0.377859
0.389812 0.185693 0.389812
0.470858 0.197411 0.401779
0.552562 0.209143 0.413761
0.634926 0.220890 0.425757
0.717947 0.232651 0.437767
0.111218 0.245758 0.382209
0.189958 0.257549 0.394167
0.269356 0.269356 0.406140
0.349412 0.281176 0.418126
0.430128 0.293011 0.430128
0.511502 0.304861 0.442143
0.593535 0.316725 0.454174
0.676226 0.328603 0.466218
0.759577 0.340496 0.478278
0.150384 0.353750 0.422494
0.229452 0.365673 0.434501
0.309178 0.377611 0.446522
0.389563 0.389563 0.458557
0.470607 0.401530 0.470607
0.552309 0.413511 0.482671
0.634671 0.425507 0.494750
0.717691 0.437517 0.506844
0.801369 0.449542 0.518951
0.189714 0.462942 0.462942
0.269110 0.474998 0.474998
0.349164 0.487067 0.487067
0.429878 0.499151 0.499151
0.511250 0.511250 0.511250
0.593281 0.523363 0.523363
0.675970 0.535491 0.535491
0.759319 0.547633 0.547633
0.843326 0.559789 0.559789
0.229207 0.573336 0.503554
0.308931 0.585523 0.515658
0.389314 0.597725 0.527777
0.470356 0.609941 0.539909
0.552057 0.622171 0.552057
0.634416 0.634416 0.564218
0.717434 0.646675 0.576395
0.801110 0.658949 0.588585
0.885446 0.671237 0.600790
0.268864 0.684931 0.544330
0.348917 0.697250 0.556483
0.429628 0.709583 0.568650
0.510998 0.721931 0.580831
0.593027 0.734293 0.593027
0.675714 0.746670 0.605237
0.759061 0.759061 0.617462
0.843066 0.771466 0.629701
0.927729 0.783886 0.641955
0.308685 0.797727 0.585269
0.389066 0.810177 0.597471
0.470105 0.822642 0.609686
0.551804 0.835122 0.621916
0.634161 0.847616 0.634161
0.717177 0.860124 0.646420
0.800851 0.872647 0.658693
0.885185 0.885185 0.670981
0.970177 0.897736 0.683284
0.348669 0.911724 0.626373
0.429378 0.924306 0.638622
0.510746 0.936903 0.650887
0.592773 0.949514 0.663165
0.675459 0.962140 0.675459
0.758803 0.974780 0.687766
0.842806 0.987435 0.700088
0.927467 1.000000 0.712425
1.000000 1.000000 0.724776
0.036525 0.036525 0.374569
0.115406 0.048824 0.386517
0.194181 0.060371 0.398480
0.273614 0.071933 0.410458
0.353706 0.083509 0.422450
0.434457 0.095100 0.434457
0.515866 0.106705 0.446478
0.597934 0.118325 0.458513
0.680661 0.129959 0.470563
0.076146 0.142925 0.414822
0.154590 0.154590 0.426820
0.233693 0.166269 0.438831
0.313454 0.177963 0.450858
0.393874 0.189671 0.462898
0.474953 0.201394 0.474953
0.556691 0.213131 0.487023
0.639087 0.224882 0.499107
0.722143 0.236648 0.511206
0.115165 0.249761 0.455239
0.193937 0.261557 0.467285
0.273368 0.273368 0.479346
0.353458 0.285194 0.491421
0.434207 0.297034 0.503510
0.515614 0.308888 0.515614
0.597680 0.320757 0.527732
0.680405 0.332640 0.539865
0.763788 0.344538 0.552012
0.154347 0.357797 0.495820
0.233448 0.369726 0.507915
0.313207 0.381668 0.520024
0.393626 0.393626 0.532148
0.474703 0.405597 0.544286
0.556438 0.417584 0.556438
0.638832 0.429584 0.568605
0.721886 0.441599 0.580786
0.805597 0.453629 0.592982
0.193693 0.467035 0.536565
0.273122 0.479095 0.548708
0.353210 0.491169 0.560866
0.433957 0.503259 0.573038
0.515362 0.515362 0.585225
0.597426 0.527480 0.597426
0.680149 0.539612 0.609642
0.763530 0.551759 0.621872
0.847570 0.563921 0.634116
0.233203 0.577473 0.577473
0.312961 0.589665 0.589665
0.393377 0.601872 0.601872
0.474452 0.614092 0.614092
0.556185 0.626328 0.626328
0.638578 0.638578 0.638578
0.721629 0.650842 0.650842
0.805338 0.663120 0.663120
0.889707 0.675414 0.675414
0.272877 0.689113 0.618545
0.352962 0.701437 0.630786
0.433707 0.713775 0.643041
0.515110 0.726127 0.655310
0.597172 0.738494 0.667594
0.679893 0.750876 0.679893
0.763272 0.763272 0.692206
0.847310 0.775683 0.704533
0.932007 0.788108 0.716875
0.312714 0.801953 0.659781
0.393128 0.814409 0.672070
0.474201 0.826879 0.684374
0.555932 0.839363 0.696692
0.638323 0.851862 0.709024
0.721372 0.864376 0.721372
0.805079 0.876903 0.733733
0.889446 0.889446 0.746109
0.974471 0.902002 0.758500
0.352715 0.915995 0.701180
0.433457 0.928582 0.713518
0.514858 0.941184 0.725870
0.596918 0.953800 0.738237
0.679637 0.966431 0.750618
0.763014 0.979076 0.763014
0.847050 0.991736 0.775424
0.931745 1.000000 0.787849
1.000000 1.000000 0.800288
0.040830 0.040830 0.447542
0.119355 0.052744 0.459579
0.198162 0.064296 0.471630
0.277629 0.075863 0.483696
0.357754 0.087444 0.495776
0.438537 0.099040 0.507871
0.519980 0.110650 0.519980
0.602081 0.122275 0.532103
0.684841 0.133914 0.544241
0.080077 0.146885 0.488092
0.158555 0.158555 0.500178
0.237691 0.170239 0.512278
0.317485 0.181937 0.524392
0.397939 0.193650 0.536521
0.479051 0.205378 0.548664
0.560822 0.217120 0.560822
0.643251 0.228876 0.572994
0.726339 0.240647 0.585180
0.119113 0.253765 0.528806
0.197918 0.265567 0.540940
0.277383 0.277383 0.553088
0.357506 0.289213 0.565251
0.438287 0.301058 0.577429
0.519728 0.312917 0.589621
0.601827 0.324791 0.601827
0.684585 0.336679 0.614048
0.768001 0.348582 0.626283
0.158312 0.361846 0.569683
0.237446 0.373780 0.581866
0.317238 0.385727 0.594063
0.397690 0.397690 0.606274
0.478800 0.409666 0.618500
0.560568 0.421657 0.630741
0.642996 0.433663 0.642996
0.726082 0.445683 0.655265
0.809827 0.457717 0.667549
0.197674 0.471129 0.610724
0.277137 0.483194 0.622955
0.357258 0.495273 0.635201
0.438037 0.507367 0.647461
0.519476 0.519476 0.659736
0.601573 0.531599 0.672025
0.684329 0.543736 0.684329
0.767743 0.555888 0.696647
0.851816 0.568054 0.708979
0.237201 0.581612 0.651928
0.316991 0.593809 0.664208
0.397441 0.606020 0.676503
0.478549 0.618246 0.688812
0.560315 0.630486 0.701135
0.642741 0.642741 0.713473
0.725825 0.655010 0.725825
0.809568 0.667294 0.738192
0.893970 0.679592 0.750573
0.276891 0.693296 0.693296
0.357010 0.705625 0.705625
0.437787 0.717968 0.717968
0.519224 0.730326 0.730326
0.601319 0.742698 0.742698
0.684073 0.755084 0.755084
0.767485 0.767485 0.767485
0.851556 0.779901 0.779901
0.936286 0.792330 0.792330
0.316744 0.806182 0.734828
0.397192 0.818642 0.747206
0.478298 0.831117 0.759597
0.560062 0.843606 0.772003
0.642486 0.856110 0.784424
0.725568 0.868628 0.796859
0.809309 0.881161 0.809309
0.893708 0.893708 0.821773
0.978767 0.906270 0.834251
0.356762 0.920268 0.776524
0.437537 0.932860 0.788950
0.518972 0.945467 0.801390
0.601065 0.958088 0.813845
0.683817 0.970724 0.826314
0.767227 0.983374 0.838798
0.851296 0.996038 0.851296
0.936024 1.000000 0.863809
1.000000 1.000000 0.876336
0.045122 0.045122 0.521053
0.123304 0.056665 0.533177
0.202145 0.068222 0.545317
0.281645 0.079794 0.557470
0.361803 0.091380 0.569638
0.442620 0.102981 0.581821
0.524095 0.114596 0.594018
0.606230 0.126226 0.606230
0.689023 0.137870 0.618456
0.084011 0.150846 0.561899
0.162521 0.162521 0.574072
0.241690 0.174210 0.586260
0.321518 0.185914 0.598462
0.402004 0.197632 0.610679
0.483150 0.209364 0.622910
0.564954 0.221111 0.635156
0.647416 0.232872 0.647416
0.730538 0.244648 0.659691
0.123062 0.257771 0.602908
0.201901 0.269578 0.615130
0.281399 0.281399 0.627367
0.361555 0.293234 0.639618
0.442370 0.305084 0.651883
0.523843 0.316948 0.664163
0.605976 0.328827 0.676458
0.688767 0.340720 0.688767
0.772216 0.352627 0.701090
0.162278 0.365897 0.644082
0.241445 0.377836 0.656352
0.321271 0.389788 0.668638
0.401755 0.401755 0.680937
0.482899 0.413737 0.693251
0.564700 0.425733 0.705580
0.647161 0.437743 0.717923
0.730280 0.449768 0.730280
0.814059 0.461808 0.742652
0.201657 0.475225 0.685419
0.281153 0.487294 0.697738
0.361307 0.499379 0.710072
0.442120 0.511478 0.722420
0.523591 0.523591 0.734783
0.605721 0.535719 0.747160
0.688510 0.547861 0.759552
0.771958 0.560018 0.771958
0.856064 0.572189 0.784379
0.241200 0.585753 0.726919
0.321024 0.597954 0.739287
0.401506 0.610171 0.751670
0.482647 0.622401 0.764067
0.564447 0.634646 0.776478
0.646906 0.646906 0.788904
0.730023 0.659180 0.801344
0.813799 0.671469 0.813799
0.898234 0.683772 0.826269
0.280907 0.697482 0.768584
0.361059 0.709815 0.781000
0.441869 0.722163 0.793432
0.523339 0.734526 0.805877
0.605467 0.746903 0.818337
0.688254 0.759294 0.830812
0.771700 0.771700 0.843301
0.855804 0.784120 0.855804
0.940567 0.796555 0.868322
0.320777 0.810412 0.810412
0.401257 0.822877 0.822877
0.482396 0.835357 0.835357
0.564194 0.847851 0.847851
0.646651 0.860360 0.860360
0.729766 0.872883 0.872883
0.813540 0.885421 0.885421
0.897973 0.897973 0.897973
0.983064 0.910539 0.910539
0.360811 0.924543 0.852403
0.441619 0.937140 0.864917
0.523087 0.949752 0.877446
0.605213 0.962378 0.889989
0.687998 0.975018 0.902546
0.771442 0.987673 0.915118
0.855544 1.000000 0.927704
0.940305 1.000000 0.940305
1.000000 1.000000 0.952920
0.049041 0.049041 0.595099
0.127256 0.060588 0.607312
0.206130 0.072151 0.619539
0.285662 0.083727 0.631781
0.365854 0.095318 0.644037
0.446704 0.106924 0.656307
0.528213 0.118544 0.668593
0.610380 0.130178 0.680892
0.693206 0.141827 0.693206
0.087945 0.154810 0.636241
0.166489 0.166489 0.648502
0.245691 0.178183 0.660778
0.325552 0.189891 0.673069
0.406072 0.201614 0.685374
0.487250 0.213352 0.697693
0.569087 0.225103 0.710027
0.651583 0.236870 0.722375
0.734738 0.248650 0.734738
0.127014 0.261779 0.677547
0.205886 0.273591 0.689857
0.285416 0.285416 0.702182
0.365606 0.297257 0.714521
0.446454 0.309111 0.726874
0.527960 0.320980 0.739242
0.610126 0.332864 0.751625
0.692950 0.344762 0.764021
0.776433 0.356675 0.776433
0.166246 0.369950 0.719016
0.245446 0.381893 0.731375
0.325305 0.393851 0.743748
0.405823 0.405823 0.756136
0.486999 0.417809 0.768538
0.568834 0.429810 0.780955
0.651328 0.441825 0.793386
0.734480 0.453855 0.805832
0.818292 0.465900 0.818292
0.205642 0.479322 0.760650
0.285170 0.491397 0.773057
0.365357 0.503486 0.785479
0.446203 0.515590 0.797915
0.527708 0.527708 0.810366
0.609872 0.539841 0.822831
0.692694 0.551988 0.835311
0.776175 0.564150 0.847805
0.860314 0.576326 0.860314
0.245201 0.589895 0.802447
0.325058 0.602101 0.814903
0.405574 0.614323 0.827373
0.486748 0.626558 0.839858
0.568581 0.638808 0.852358
0.651073 0.651073 0.864872
0.734223 0.663352 0.877400
0.818032 0.675645 0.889943
0.902500 0.687953 0.902500
0.284924 0.701669 0.844407
0.365109 0.714007 0.856912
0.445953 0.726360 0.869431
0.527456 0.738727 0.881965
0.609617 0.751109 0.894513
0.692437 0.763505 0.907075
0.775916 0.775916 0.919652
0.860054 0.788341 0.932244
0.944850 0.800781 0.944850
0.324811 0.814643 0.886531
0.405324 0.827114 0.899085
0.486497 0.839598 0.911653
0.568328 0.852098 0.924235
0.650817 0.864611 0.936832
0.733966 0.877139 0.949443
0.817773 0.889682 0.962069
0.902239 0.902239 0.974709
0.987363 0.914810 0.987363
0.364861 0.928819 0.928819
0.445703 0.941421 0.941421
0.527204 0.954038 0.954038
0.609363 0.966669 0.966669
0.692181 0.979314 0.979314
0.775658 0.991974 0.991974
0.859793 1.000000 1.000000
0.944588 1.000000 1.000000
1.000000 1.000000 1.000000
