luts/ili.cube
TITLE "ili — dessaturado suave"
LUT_3D_SIZE 33
DOMAIN_MIN 0 0 0
DOMAIN_MAX 1 1 1
0.015000 0.015000 0.015000
0.036388 0.018169 0.018169
0.056633 0.021338 0.021338
0.076141 0.024507 0.024507
0.095691 0.027676 0.027676
0.115281 0.030845 0.030845
0.134913 0.034014 0.034014
0.154585 0.037183 0.037183
0.174299 0.040353 0.040353
0.194054 0.043522 0.043522
0.213851 0.046539 0.046539
0.233688 0.049423 0.049423
0.253567 0.052309 0.052309
0.273487 0.055196 0.055196
0.293447 0.058083 0.058083
0.313450 0.060972 0.060972
0.333493 0.063861 0.063861
0.353577 0.066751 0.066751
0.373703 0.069642 0.069642
0.393870 0.072534 0.072534
0.414078 0.075427 0.075427
0.434327 0.078321 0.078321
0.454617 0.081216 0.081216
0.474949 0.084111 0.084111
0.495321 0.087008 0.087008
0.515735 0.089905 0.089905
0.536190 0.092804 0.092804
0.556686 0.095703 0.095703
0.577224 0.098603 0.098603
0.597802 0.101504 0.101504
0.618422 0.104406 0.104406
0.639083 0.107309 0.107309
0.659785 0.110213 0.110213
0.025661 0.043880 0.025661
0.046865 0.046865 0.028830
0.066352 0.049749 0.031999
0.085881 0.052635 0.035168
0.105450 0.055522 0.038337
0.125061 0.058410 0.041506
0.144713 0.061298 0.044675
0.164407 0.064187 0.047589
0.184141 0.067078 0.050474
0.203917 0.069969 0.053360
0.223734 0.072861 0.056247
0.243592 0.075754 0.059135
0.263491 0.078648 0.062023
0.283431 0.081543 0.064913
0.303413 0.084439 0.067804
0.323435 0.087335 0.070695
0.343499 0.090233 0.073587
0.363604 0.093131 0.076481
0.383750 0.096031 0.079375
0.403937 0.098931 0.082270
0.424166 0.101832 0.085166
0.444436 0.104734 0.088063
0.464746 0.107637 0.090960
0.485098 0.110541 0.093859
0.505492 0.113446 0.096759
0.525926 0.116351 0.099659
0.546402 0.119258 0.102561
0.566918 0.122165 0.105463
0.587476 0.125074 0.108366
0.608075 0.127983 0.111270
0.628715 0.130893 0.114175
0.649397 0.133804 0.117081
0.670119 0.136716 0.119988
0.036322 0.070296 0.036322
0.056573 0.073188 0.039491
0.076081 0.076081 0.042660
0.095630 0.078975 0.045755
0.115221 0.081870 0.048639
0.134852 0.084766 0.051525
0.154525 0.087663 0.054411
0.174238 0.090560 0.057298
0.193993 0.093459 0.060186
0.213790 0.096358 0.063075
0.233627 0.099259 0.065965
0.253505 0.102160 0.068856
0.273425 0.105062 0.071748
0.293386 0.107965 0.074641
0.313388 0.110869 0.077534
0.333431 0.113774 0.080429
0.353515 0.116680 0.083324
0.373641 0.119586 0.086220
0.393808 0.122494 0.089118
0.414015 0.125403 0.092016
0.434264 0.128312 0.094915
0.454555 0.131222 0.097815
0.474886 0.134133 0.100715
0.495258 0.137046 0.103617
0.515672 0.139959 0.106520
0.536127 0.142872 0.109423
0.556623 0.145787 0.112328
0.577160 0.148703 0.115233
0.597739 0.151620 0.118139
0.618358 0.154537 0.121046
0.639019 0.157456 0.123954
0.659721 0.160375 0.126863
0.680464 0.163295 0.129773
0.046805 0.096686 0.046805
0.066292 0.099586 0.049689
0.085820 0.102488 0.052575
0.105390 0.105390 0.055462
0.125001 0.108293 0.058349
0.144653 0.111197 0.061238
0.164346 0.114102 0.064127
0.184080 0.117008 0.067018
0.203856 0.119915 0.069909
0.223673 0.122823 0.072801
0.243530 0.125731 0.075694
0.263429 0.128641 0.078588
0.283370 0.131551 0.081483
0.303351 0.134462 0.084378
0.323373 0.137375 0.087275
0.343437 0.140288 0.090173
0.363542 0.143202 0.093071
0.383688 0.146117 0.095970
0.403875 0.149032 0.098871
0.424104 0.151949 0.101772
0.444373 0.154867 0.104674
0.464684 0.157785 0.107577
0.485036 0.160705 0.110481
0.505429 0.163625 0.113385
0.525863 0.166546 0.116291
0.546338 0.169469 0.119197
0.566855 0.172392 0.122105
0.587413 0.175316 0.125013
0.608012 0.178240 0.127923
0.628652 0.181166 0.130833
0.649333 0.184093 0.133744
0.670055 0.187020 0.136656
0.690819 0.189949 0.139569
0.056513 0.123151 0.056513
0.076021 0.126060 0.059401
0.095570 0.128970 0.062290
0.115160 0.131880 0.065179
0.134791 0.134791 0.068070
0.154464 0.137704 0.070962
0.174178 0.140617 0.073854
0.193932 0.143531 0.076747
0.213729 0.146446 0.079642
0.233566 0.149362 0.082537
0.253444 0.152279 0.085433
0.273364 0.155197 0.088330
0.293324 0.158115 0.091228
0.313326 0.161035 0.094126
0.333369 0.163955 0.097026
0.353453 0.166877 0.099927
0.373579 0.169799 0.102828
0.393745 0.172722 0.105730
0.413953 0.175646 0.108634
0.434202 0.178571 0.111538
0.454492 0.181497 0.114443
0.474823 0.184424 0.117349
0.495196 0.187351 0.120256
0.515609 0.190280 0.123164
0.536064 0.193209 0.126072
0.556560 0.196140 0.128982
0.577097 0.199071 0.131892
0.597675 0.202003 0.134804
0.618295 0.204936 0.137716
0.638955 0.207870 0.140629
0.659657 0.210805 0.143544
0.680400 0.213741 0.146459
0.701184 0.216678 0.149375
0.066232 0.149692 0.066232
0.085760 0.152608 0.069123
0.105330 0.155526 0.072015
0.124940 0.158445 0.074907
0.144592 0.161365 0.077801
0.164285 0.164285 0.080696
0.184019 0.167207 0.083591
0.203795 0.170129 0.086487
0.223611 0.173052 0.089385
0.243469 0.175976 0.092283
0.263368 0.178902 0.095182
0.283308 0.181828 0.098082
0.303289 0.184754 0.100983
0.323312 0.187682 0.103885
0.343375 0.190611 0.106787
0.363480 0.193540 0.109691
0.383626 0.196471 0.112595
0.403813 0.199402 0.115501
0.424041 0.202335 0.118407
0.444311 0.205268 0.121314
0.464621 0.208202 0.124223
0.484973 0.211137 0.127132
0.505366 0.214073 0.130041
0.525800 0.217010 0.132952
0.546275 0.219947 0.135864
0.566792 0.222886 0.138777
0.587349 0.225826 0.141690
0.607948 0.228766 0.144605
0.628588 0.231707 0.147520
0.649269 0.234650 0.150436
0.669991 0.237593 0.153353
0.690755 0.240537 0.156272
0.711559 0.243482 0.159191
0.075961 0.176307 0.075961
0.095510 0.179232 0.078855
0.115100 0.182158 0.081750
0.134731 0.185085 0.084645
0.154403 0.188013 0.087542
0.174117 0.190942 0.090440
0.193872 0.193872 0.093338
0.213667 0.196802 0.096238
0.233504 0.199734 0.099138
0.253383 0.202666 0.102039
0.273302 0.205599 0.104941
0.293263 0.208534 0.107844
0.313264 0.211469 0.110748
0.333307 0.214405 0.113653
0.353391 0.217342 0.116559
0.373517 0.220279 0.119465
0.393683 0.223218 0.122373
0.413891 0.226158 0.125281
0.434139 0.229098 0.128191
0.454429 0.232040 0.131101
0.474761 0.234982 0.134012
0.495133 0.237925 0.136924
0.515546 0.240869 0.139837
0.536001 0.243815 0.142751
0.556497 0.246760 0.145666
0.577034 0.249707 0.148582
0.597612 0.252655 0.151498
0.618231 0.255604 0.154416
0.638891 0.258553 0.157334
0.659593 0.261504 0.160253
0.680336 0.264455 0.163174
0.701120 0.267408 0.166095
0.721945 0.270361 0.169017
0.085700 0.202997 0.085700
0.105269 0.205931 0.088597
0.124880 0.208865 0.091495
0.144532 0.211800 0.094394
0.164224 0.214736 0.097293
0.183959 0.217673 0.100194
0.203734 0.220611 0.103096
0.223550 0.223550 0.105998
0.243408 0.226490 0.108901
0.263307 0.229431 0.111806
0.283247 0.232372 0.114711
0.303228 0.235315 0.117617
0.323250 0.238258 0.120524
0.343313 0.241202 0.123432
0.363418 0.244147 0.126341
0.383564 0.247093 0.129250
0.403751 0.250040 0.132161
0.423979 0.252988 0.135072
0.444248 0.255937 0.137985
0.464558 0.258887 0.140898
0.484910 0.261837 0.143812
0.505303 0.264789 0.146727
0.525737 0.267741 0.149643
0.546212 0.270694 0.152560
0.566728 0.273649 0.155478
0.587286 0.276604 0.158397
0.607884 0.279560 0.161316
0.628524 0.282517 0.164237
0.649205 0.285474 0.167158
0.669927 0.288433 0.170081
0.690691 0.291393 0.173004
0.711495 0.294353 0.175928
0.732341 0.297315 0.178853
0.095449 0.229763 0.095449
0.115039 0.232705 0.098349
0.134670 0.235647 0.101250
0.154343 0.238591 0.104152
0.174056 0.241535 0.107055
0.193811 0.244480 0.109959
0.213606 0.247426 0.112863
0.233443 0.250373 0.115769
0.253321 0.253321 0.118675
0.273241 0.256270 0.121582
0.293201 0.259220 0.124491
0.313203 0.262171 0.127400
0.333246 0.265122 0.130310
0.353329 0.268075 0.133221
0.373455 0.271028 0.136133
0.393621 0.273983 0.139045
0.413828 0.276938 0.141959
0.434077 0.279894 0.144873
0.454367 0.282851 0.147789
0.474698 0.285809 0.150705
0.495070 0.288768 0.153622
0.515483 0.291727 0.156541
0.535938 0.294688 0.159460
0.556433 0.297649 0.162380
0.576970 0.300612 0.165300
0.597548 0.303575 0.168222
0.618167 0.306539 0.171145
0.638828 0.309505 0.174069
0.659529 0.312471 0.176993
0.680272 0.315438 0.179918
0.701056 0.318405 0.182845
0.721881 0.321374 0.185772
0.742747 0.324344 0.188700
0.105209 0.256604 0.105209
0.124819 0.259553 0.108112
0.144471 0.262504 0.111016
0.164164 0.265456 0.113921
0.183898 0.268408 0.116827
0.203673 0.271362 0.119734
0.223489 0.274316 0.122641
0.243347 0.277272 0.125550
0.263245 0.280228 0.128459
0.283185 0.283185 0.131369
0.303166 0.286143 0.134281
0.323188 0.289102 0.137193
0.343251 0.292062 0.140106
0.363356 0.295022 0.143020
0.383502 0.297984 0.145935
0.403688 0.300947 0.148851
0.423916 0.303910 0.151767
0.444186 0.306874 0.154685
0.464496 0.309840 0.157603
0.484847 0.312806 0.160523
0.505240 0.315773 0.163443
0.525674 0.318741 0.166364
0.546149 0.321710 0.169286
0.566665 0.324679 0.172209
0.587222 0.327650 0.175133
0.607821 0.330622 0.178058
0.628461 0.333594 0.180984
0.649141 0.336568 0.183910
0.669863 0.339542 0.186838
0.690627 0.342517 0.189766
0.711431 0.345493 0.192696
0.732276 0.348470 0.195626
0.753163 0.351448 0.198557
0.114979 0.283519 0.114979
0.134610 0.286477 0.117885
0.154282 0.289436 0.120792
0.173995 0.292396 0.123700
0.193750 0.295357 0.126609
0.213545 0.298319 0.129519
0.233382 0.301281 0.132429
0.253260 0.304245 0.135341
0.273179 0.307209 0.138253
0.293140 0.310175 0.141167
0.313141 0.313141 0.144081
0.333184 0.316108 0.146996
0.353268 0.319076 0.149912
0.373393 0.322045 0.152829
0.393559 0.325015 0.155747
0.413766 0.327986 0.158666
0.434015 0.330958 0.161586
0.454304 0.333930 0.164506
0.474635 0.336904 0.167428
0.495007 0.339878 0.170350
0.515420 0.342853 0.173274
0.535875 0.345829 0.176198
0.556370 0.348807 0.179123
0.576907 0.351785 0.182049
0.597485 0.354763 0.184976
0.618104 0.357743 0.187904
0.638764 0.360724 0.190833
0.659465 0.363706 0.193762
0.680208 0.366688 0.196693
0.700992 0.369672 0.199624
0.721816 0.372656 0.202557
0.742683 0.375641 0.205490
0.763590 0.378627 0.208424
0.124759 0.310510 0.124759
0.144410 0.313476 0.127668
0.164103 0.316444 0.130578
0.183837 0.319412 0.133489
0.203612 0.322381 0.136401
0.223428 0.325351 0.139314
0.243285 0.328322 0.142228
0.263184 0.331293 0.145142
0.283123 0.334266 0.148058
0.303104 0.337240 0.150974
0.323126 0.340214 0.153891
0.343190 0.343190 0.156810
0.363294 0.346166 0.159729
0.383439 0.349143 0.162649
0.403626 0.352121 0.165570
0.423854 0.355100 0.168492
0.444123 0.358080 0.171414
0.464433 0.361061 0.174338
0.484785 0.364043 0.177263
0.505177 0.367025 0.180188
0.525611 0.370009 0.183114
0.546086 0.372993 0.186042
0.566602 0.375978 0.188970
0.587159 0.378965 0.191899
0.607757 0.381952 0.194829
0.628397 0.384940 0.197760
0.649078 0.387929 0.200692
0.669799 0.390919 0.203624
0.690563 0.393909 0.206558
0.711367 0.396901 0.209492
0.732212 0.399894 0.212428
0.753099 0.402887 0.215364
0.774026 0.405882 0.218301
0.134549 0.337576 0.134549
0.154221 0.340550 0.137461
0.173934 0.343526 0.140375
0.193689 0.346502 0.143289
0.213484 0.349479 0.146204
0.233321 0.352458 0.149119
0.253199 0.355437 0.152036
0.273118 0.358417 0.154954
0.293078 0.361398 0.157872
0.313079 0.364380 0.160792
0.333122 0.367362 0.163712
0.353206 0.370346 0.166633
0.373330 0.373330 0.169556
0.393496 0.376316 0.172479
0.413704 0.379302 0.175403
0.433952 0.382289 0.178328
0.454242 0.385278 0.181253
0.474572 0.388267 0.184180
0.494944 0.391257 0.187108
0.515357 0.394247 0.190036
0.535812 0.397239 0.192966
0.556307 0.400232 0.195896
0.576843 0.403225 0.198827
0.597421 0.406220 0.201759
0.618040 0.409215 0.204692
0.638700 0.412212 0.207626
0.659401 0.415209 0.210561
0.680144 0.418207 0.213497
0.700927 0.421206 0.216433
0.721752 0.424206 0.219371
0.742618 0.427207 0.222309
0.763525 0.430208 0.225249
0.784473 0.433211 0.228189
0.144350 0.364717 0.144350
0.164042 0.367699 0.147265
0.183776 0.370683 0.150181
0.203551 0.373668 0.153098
0.223367 0.376653 0.156016
0.243224 0.379640 0.158935
0.263122 0.382627 0.161855
0.283062 0.385615 0.164776
0.303043 0.388604 0.167697
0.323065 0.391595 0.170620
0.343128 0.394585 0.173543
0.363232 0.397577 0.176467
0.383377 0.400570 0.179393
0.403564 0.403564 0.182319
0.423792 0.406558 0.185246
0.444060 0.409554 0.188174
0.464371 0.412550 0.191103
0.484722 0.415548 0.194032
0.505114 0.418546 0.196963
0.525548 0.421545 0.199895
0.546022 0.424545 0.202827
0.566538 0.427546 0.205760
0.587095 0.430548 0.208695
0.607694 0.433550 0.211630
0.628333 0.436554 0.214566
0.649014 0.439558 0.217503
0.669736 0.442564 0.220441
0.690498 0.445570 0.223379
0.711303 0.448577 0.226319
0.732148 0.451586 0.229260
0.753034 0.454595 0.232201
0.773962 0.457605 0.235144
0.794931 0.460615 0.238087
0.154160 0.391932 0.154160
0.173874 0.394923 0.157079
0.193628 0.397915 0.159998
0.213423 0.400908 0.162918
0.233260 0.403902 0.165839
0.253137 0.406897 0.168761
0.273056 0.409892 0.171684
0.293016 0.412889 0.174608
0.313018 0.415886 0.177532
0.333060 0.418885 0.180458
0.353144 0.421884 0.183384
0.373268 0.424884 0.186312
0.393434 0.427885 0.189240
0.413641 0.430887 0.192169
0.433890 0.433890 0.195099
0.454179 0.436893 0.198030
0.474510 0.439898 0.200962
0.494881 0.442903 0.203895
0.515294 0.445910 0.206828
0.535748 0.448917 0.209763
0.556244 0.451925 0.212699
0.576780 0.454935 0.215635
0.597358 0.457945 0.218572
0.617977 0.460956 0.221510
0.638636 0.463967 0.224450
0.659338 0.466980 0.227390
0.680080 0.469994 0.230330
0.700863 0.473008 0.233272
0.721688 0.476024 0.236215
0.742554 0.479040 0.239159
0.763461 0.482058 0.242103
0.784409 0.485076 0.245049
0.805398 0.488095 0.247995
0.163981 0.419223 0.163981
0.183715 0.422223 0.166903
0.203490 0.425223 0.169825
0.223306 0.428224 0.172748
0.243163 0.431226 0.175672
0.263061 0.434229 0.178597
0.283000 0.437233 0.181523
0.302981 0.440238 0.184450
0.323003 0.443243 0.187378
0.343066 0.446250 0.190306
0.363170 0.449257 0.193236
0.383315 0.452265 0.196166
0.403502 0.455275 0.199097
0.423729 0.458285 0.202030
0.443998 0.461296 0.204963
0.464308 0.464308 0.207897
0.484659 0.467321 0.210832
0.505051 0.470334 0.213767
0.525485 0.473349 0.216704
0.545959 0.476365 0.219642
0.566475 0.479381 0.222580
0.587032 0.482399 0.225520
0.607630 0.485417 0.228460
0.628270 0.488436 0.231401
0.648950 0.491456 0.234344
0.669672 0.494477 0.237287
0.690434 0.497499 0.240231
0.711238 0.500522 0.243175
0.732084 0.503546 0.246121
0.752970 0.506570 0.249068
0.773897 0.509596 0.252015
0.794866 0.512622 0.254964
0.815876 0.515649 0.257913
0.173813 0.446589 0.173813
0.193567 0.449597 0.176737
0.213362 0.452605 0.179662
0.233198 0.455615 0.182589
0.253076 0.458625 0.185516
0.272995 0.461636 0.188444
0.292955 0.464648 0.191373
0.312956 0.467661 0.194302
0.332998 0.470675 0.197233
0.353082 0.473690 0.200165
0.373206 0.476706 0.203097
0.393372 0.479722 0.206031
0.413579 0.482740 0.208965
0.433827 0.485758 0.211900
0.454116 0.488777 0.214837
0.474447 0.491797 0.217774
0.494819 0.494819 0.220712
0.515231 0.497841 0.223650
0.535685 0.500863 0.226590
0.556180 0.503887 0.229531
0.576717 0.506912 0.232472
0.597294 0.509938 0.235415
0.617913 0.512964 0.238358
0.638573 0.515992 0.241303
0.659274 0.519020 0.244248
0.680016 0.522049 0.247194
0.700799 0.525079 0.250141
0.721624 0.528110 0.253089
0.742489 0.531142 0.256038
0.763396 0.534175 0.258987
0.784344 0.537209 0.261938
0.805333 0.540243 0.264889
0.826364 0.543279 0.267842
0.183654 0.474031 0.183654
0.203429 0.477046 0.186582
0.223245 0.480063 0.189510
0.243102 0.483081 0.192439
0.263000 0.486099 0.195369
0.282939 0.489118 0.198300
0.302919 0.492139 0.201232
0.322941 0.495160 0.204165
0.343004 0.498182 0.207099
0.363108 0.501205 0.210034
0.383253 0.504229 0.212969
0.403439 0.507254 0.215906
0.423667 0.510280 0.218843
0.443935 0.513306 0.221781
0.464245 0.516334 0.224721
0.484596 0.519362 0.227661
0.504988 0.522391 0.230602
0.525422 0.525422 0.233544
0.545896 0.528453 0.236486
0.566412 0.531485 0.239430
0.586969 0.534518 0.242375
0.607567 0.537552 0.245320
0.628206 0.540586 0.248267
0.648886 0.543622 0.251214
0.669608 0.546659 0.254162
0.690370 0.549696 0.257111
0.711174 0.552734 0.260061
0.732019 0.555774 0.263012
0.752905 0.558814 0.265964
0.773833 0.561855 0.268917
0.794801 0.564897 0.271871
0.815811 0.567940 0.274825
0.836862 0.570984 0.277781
0.193506 0.501547 0.193506
0.213301 0.504571 0.196436
0.233137 0.507596 0.199368
0.253015 0.510621 0.202300
0.272933 0.513648 0.205233
0.292893 0.516676 0.208167
0.312894 0.519704 0.211102
0.332936 0.522734 0.214038
0.353020 0.525764 0.216975
0.373144 0.528795 0.219913
0.393310 0.531827 0.222851
0.413517 0.534861 0.225791
0.433765 0.537895 0.228731
0.454054 0.540929 0.231673
0.474384 0.543965 0.234615
0.494756 0.547002 0.237558
0.515168 0.550039 0.240502
0.535622 0.553078 0.243447
0.556117 0.556117 0.246393
0.576653 0.559158 0.249340
0.597231 0.562199 0.252287
0.617849 0.565241 0.255236
0.638509 0.568284 0.258185
0.659210 0.571328 0.261136
0.679952 0.574372 0.264087
0.700735 0.577418 0.267039
0.721559 0.580465 0.269992
0.742425 0.583512 0.272946
0.763332 0.586561 0.275901
0.784280 0.589610 0.278857
0.805269 0.592660 0.281813
0.826299 0.595711 0.284771
0.847370 0.598763 0.287730
0.203368 0.529138 0.203368
0.223183 0.532170 0.206301
0.243040 0.535203 0.209236
0.262938 0.538237 0.212171
0.282877 0.541272 0.215107
0.302858 0.544308 0.218044
0.322879 0.547345 0.220982
0.342942 0.550383 0.223921
0.363046 0.553421 0.226861
0.383191 0.556461 0.229802
0.403377 0.559501 0.232744
0.423604 0.562542 0.235686
0.443873 0.565585 0.238630
0.464183 0.568628 0.241574
0.484533 0.571672 0.244519
0.504925 0.574717 0.247465
0.525359 0.577762 0.250413
0.545833 0.580809 0.253361
0.566349 0.583857 0.256309
0.586905 0.586905 0.259259
0.607503 0.589955 0.262210
0.628142 0.593005 0.265162
0.648822 0.596056 0.268114
0.669544 0.599108 0.271067
0.690306 0.602161 0.274022
0.711110 0.605215 0.276977
0.731955 0.608270 0.279933
0.752841 0.611326 0.282890
0.773768 0.614383 0.285848
0.794737 0.617440 0.288807
0.815746 0.620499 0.291767
0.836797 0.623558 0.294727
0.857889 0.626618 0.297689
0.213240 0.556804 0.213240
0.233076 0.559845 0.216176
0.252953 0.562886 0.219114
0.272872 0.565928 0.222052
0.292832 0.568972 0.224992
0.312832 0.572016 0.227932
0.332875 0.575061 0.230873
0.352958 0.578107 0.233815
0.373082 0.581153 0.236758
0.393248 0.584201 0.239701
0.413454 0.587250 0.242646
0.433702 0.590299 0.245592
0.453991 0.593350 0.248538
0.474321 0.596401 0.251486
0.494693 0.599453 0.254434
0.515105 0.602506 0.257383
0.535559 0.605560 0.260333
0.556054 0.608615 0.263284
0.576590 0.611671 0.266236
0.597167 0.614728 0.269189
0.617786 0.617786 0.272143
0.638445 0.620844 0.275098
0.659146 0.623904 0.278053
0.679888 0.626964 0.281009
0.700671 0.630025 0.283967
0.721495 0.633088 0.286925
0.742361 0.636151 0.289884
0.763267 0.639215 0.292844
0.784215 0.642280 0.295805
0.805204 0.645345 0.298767
0.826234 0.648412 0.301730
0.847305 0.651480 0.304694
0.868418 0.654548 0.307658
0.223122 0.584546 0.223122
0.242979 0.587594 0.226062
0.262877 0.590644 0.229002
0.282816 0.593694 0.231944
0.302796 0.596746 0.234886
0.322817 0.599798 0.237829
0.342880 0.602851 0.240773
0.362984 0.605906 0.243718
0.383129 0.608961 0.246664
0.403315 0.612017 0.249611
0.423542 0.615073 0.252559
0.443810 0.618131 0.255508
0.464120 0.621190 0.258457
0.484471 0.624249 0.261408
0.504863 0.627310 0.264359
0.525296 0.630371 0.267311
0.545770 0.633434 0.270264
0.566285 0.636497 0.273218
0.586842 0.639561 0.276173
0.607440 0.642626 0.279129
0.628078 0.645692 0.282086
0.648759 0.648759 0.285044
0.669480 0.651826 0.288002
0.690242 0.654895 0.290962
0.711046 0.657964 0.293922
0.731891 0.661035 0.296883
0.752777 0.664106 0.299846
0.773704 0.667178 0.302809
0.794672 0.670251 0.305773
0.815681 0.673326 0.308738
0.836732 0.676400 0.311704
0.857824 0.679476 0.314670
0.878957 0.682553 0.317638
0.233015 0.612362 0.233015
0.252892 0.615419 0.235958
0.272810 0.618477 0.238901
0.292770 0.621536 0.241846
0.312771 0.624595 0.244791
0.332813 0.627656 0.247737
0.352896 0.630717 0.250684
0.373020 0.633780 0.253632
0.393185 0.636843 0.256581
0.413392 0.639907 0.259531
0.433640 0.642972 0.262482
0.453929 0.646038 0.265434
0.474259 0.649105 0.268386
0.494630 0.652173 0.271340
0.515042 0.655242 0.274294
0.535496 0.658311 0.277249
0.555991 0.661382 0.280206
0.576527 0.664453 0.283163
0.597104 0.667526 0.286121
0.617722 0.670599 0.289080
0.638382 0.673673 0.292039
0.659082 0.676748 0.295000
0.679824 0.679824 0.297962
0.700607 0.682901 0.300924
0.721431 0.685979 0.303888
0.742296 0.689057 0.306852
0.763203 0.692137 0.309817
0.784150 0.695217 0.312783
0.805139 0.698299 0.315751
0.826169 0.701381 0.318718
0.847240 0.704464 0.321687
0.868353 0.707548 0.324657
0.889506 0.710633 0.327628
0.242918 0.640253 0.242918
0.262815 0.643319 0.245863
0.282754 0.646385 0.248810
0.302734 0.649452 0.251757
0.322756 0.652520 0.254706
0.342818 0.655588 0.257655
0.362922 0.658658 0.260605
0.383066 0.661729 0.263556
0.403252 0.664800 0.266508
0.423480 0.667873 0.269461
0.443748 0.670946 0.272415
0.464057 0.674020 0.275370
0.484408 0.677095 0.278326
0.504800 0.680172 0.281282
0.525233 0.683248 0.284240
0.545707 0.686326 0.287198
0.566222 0.689405 0.290157
0.586778 0.692485 0.293117
0.607376 0.695565 0.296078
0.628015 0.698647 0.299040
0.648695 0.701729 0.302003
0.669416 0.704812 0.304967
0.690178 0.707897 0.307932
0.710982 0.710982 0.310897
0.731826 0.714068 0.313864
0.752712 0.717155 0.316831
0.773639 0.720242 0.319799
0.794607 0.723331 0.322768
0.815617 0.726421 0.325739
0.836667 0.729511 0.328710
0.857759 0.732603 0.331681
0.878892 0.735695 0.334654
0.900066 0.738788 0.337628
0.252831 0.668220 0.252831
0.272749 0.671293 0.255780
0.292708 0.674368 0.258729
0.312709 0.677443 0.261680
0.332751 0.680519 0.264631
0.352834 0.683596 0.267583
0.372958 0.686674 0.270537
0.393123 0.689753 0.273491
0.413330 0.692833 0.276446
0.433577 0.695913 0.279402
0.453866 0.698995 0.282359
0.474196 0.702077 0.285316
0.494567 0.705161 0.288275
0.514979 0.708245 0.291235
0.535433 0.711330 0.294195
0.555928 0.714416 0.297157
0.576463 0.717503 0.300119
0.597040 0.720591 0.303082
0.617658 0.723680 0.306046
0.638318 0.726770 0.309011
0.659018 0.729860 0.311977
0.679760 0.732952 0.314944
0.700543 0.736044 0.317912
0.721367 0.739138 0.320880
0.742232 0.742232 0.323850
0.763138 0.745327 0.326820
0.784086 0.748423 0.329791
0.805074 0.751520 0.332764
0.826104 0.754618 0.335737
0.847175 0.757717 0.338711
0.868287 0.760816 0.341686
0.889441 0.763917 0.344662
0.910635 0.767018 0.347638
0.262754 0.696262 0.262754
0.282693 0.699343 0.265706
0.302673 0.702426 0.268659
0.322694 0.705509 0.271612
0.342756 0.708594 0.274567
0.362860 0.711679 0.277522
0.383004 0.714765 0.280478
0.403190 0.717852 0.283435
0.423417 0.720940 0.286393
0.443685 0.724029 0.289352
0.463995 0.727119 0.292312
0.484345 0.730210 0.295273
0.504737 0.733301 0.298235
0.525169 0.736394 0.301198
0.545643 0.739487 0.304161
0.566159 0.742582 0.307125
0.586715 0.745677 0.310091
0.607312 0.748773 0.313057
0.627951 0.751870 0.316024
0.648631 0.754968 0.318992
0.669352 0.758067 0.321961
0.690114 0.761167 0.324931
0.710917 0.764267 0.327902
0.731762 0.767369 0.330873
0.752648 0.770471 0.333846
0.773575 0.773575 0.336819
0.794543 0.776679 0.339794
0.815552 0.779784 0.342769
0.836602 0.782890 0.345745
0.857694 0.785997 0.348722
0.878826 0.789105 0.351700
0.900000 0.792214 0.354679
0.921215 0.795323 0.357659
0.272688 0.724378 0.272688
0.292647 0.727468 0.275642
0.312647 0.730559 0.278598
0.332689 0.733651 0.281555
0.352772 0.736743 0.284512
0.372896 0.739837 0.287471
0.393061 0.742931 0.290430
0.413267 0.746027 0.293390
0.433515 0.749123 0.296351
0.453803 0.752220 0.299313
0.474133 0.755318 0.302276
0.494504 0.758417 0.305240
0.514916 0.761517 0.308205
0.535370 0.764618 0.311171
0.555864 0.767719 0.314137
0.576400 0.770822 0.317105
0.596977 0.773925 0.320073
0.617595 0.777030 0.323042
0.638254 0.780135 0.326012
0.658954 0.783241 0.328983
0.679696 0.786348 0.331955
0.700479 0.789456 0.334928
0.721302 0.792565 0.337902
0.742168 0.795675 0.340877
0.763074 0.798786 0.343852
0.784021 0.801897 0.346829
0.805010 0.805010 0.349806
