luts/ili.cube
TITLE "ili — dessaturado suave"
LUT_3D_SIZE 5
DOMAIN_MIN 0 0 0
DOMAIN_MAX 1 1 1
0.015000 0.015000 0.015000
0.174299 0.040353 0.040353
0.333493 0.063861 0.063861
0.495321 0.087008 0.087008
0.659785 0.110213 0.110213
0.095449 0.229763 0.095449
0.253321 0.253321 0.118675
0.413828 0.276938 0.141959
0.576970 0.300612 0.165300
0.742747 0.324344 0.188700
0.173813 0.446589 0.173813
0.332998 0.470675 0.197233
0.494819 0.494819 0.220712
0.659274 0.519020 0.244248
0.826364 0.543279 0.267842
0.252831 0.668220 0.252831
0.413330 0.692833 0.276446
0.576463 0.717503 0.300119
0.742232 0.742232 0.323850
0.910635 0.767018 0.347638
0.332504 0.894655 0.332504
0.494316 0.919795 0.356313
0.658763 0.944992 0.380181
0.825845 0.970248 0.404106
0.995561 0.995561 0.428089
0.023610 0.023610 0.158863
0.182247 0.048606 0.182247
0.341573 0.071715 0.205688
0.503534 0.094882 0.229187
0.668130 0.118106 0.252744
0.103330 0.237757 0.237757
0.261335 0.261335 0.261335
0.421975 0.284971 0.284971
0.585249 0.308665 0.308665
0.751158 0.332417 0.332417
0.181760 0.454763 0.317305
0.341078 0.478868 0.341078
0.503031 0.503031 0.364909
0.667619 0.527252 0.388797
0.834841 0.551531 0.412743
0.260844 0.676572 0.397508
0.421476 0.701205 0.421476
0.584742 0.725895 0.445501
0.750643 0.750643 0.469584
0.919179 0.775449 0.493725
0.340583 0.903186 0.478366
0.502528 0.928345 0.502528
0.667107 0.953563 0.526747
0.834322 0.978838 0.551025
1.000000 1.000000 0.575361
0.032220 0.032220 0.302131
0.190201 0.056448 0.325866
0.349660 0.079576 0.349660
0.511754 0.102763 0.373511
0.676482 0.126007 0.397421
0.111218 0.245758 0.382209
0.269356 0.269356 0.406140
0.430128 0.293011 0.430128
0.593535 0.316725 0.454174
0.759577 0.340496 0.478278
0.189714 0.462942 0.462942
0.349164 0.487067 0.487067
0.511250 0.511250 0.511250
0.675970 0.535491 0.535491
0.843326 0.559789 0.559789
0.268864 0.684931 0.544330
0.429628 0.709583 0.568650
0.593027 0.734293 0.593027
0.759061 0.759061 0.617462
0.927729 0.783886 0.641955
0.348669 0.911724 0.626373
0.510746 0.936903 0.650887
0.675459 0.962140 0.675459
0.842806 0.987435 0.700088
1.000000 1.000000 0.724776
0.040830 0.040830 0.447542
0.198162 0.064296 0.471630
0.357754 0.087444 0.495776
0.519980 0.110650 0.519980
0.684841 0.133914 0.544241
0.119113 0.253765 0.528806
0.277383 0.277383 0.553088
0.438287 0.301058 0.577429
0.601827 0.324791 0.601827
0.768001 0.348582 0.626283
0.197674 0.471129 0.610724
0.357258 0.495273 0.635201
0.519476 0.519476 0.659736
0.684329 0.543736 0.684329
0.851816 0.568054 0.708979
0.276891 0.693296 0.693296
0.437787 0.717968 0.717968
0.601319 0.742698 0.742698
0.767485 0.767485 0.767485
0.936286 0.792330 0.792330
0.356762 0.920268 0.776524
0.518972 0.945467 0.801390
0.683817 0.970724 0.826314
0.851296 0.996038 0.851296
1.000000 1.000000 0.876336
0.049041 0.049041 0.595099
0.206130 0.072151 0.619539
0.365854 0.095318 0.644037
0.528213 0.118544 0.668593
0.693206 0.141827 0.693206
0.127014 0.261779 0.677547
0.285416 0.285416 0.702182
0.446454 0.309111 0.726874
0.610126 0.332864 0.751625
0.776433 0.356675 0.776433
0.205642 0.479322 0.760650
0.365357 0.503486 0.785479
0.527708 0.527708 0.810366
0.692694 0.551988 0.835311
0.860314 0.576326 0.860314
0.284924 0.701669 0.844407
0.445953 0.726360 0.869431
0.609617 0.751109 0.894513
0.775916 0.775916 0.919652
0.944850 0.800781 0.944850
0.364861 0.928819 0.928819
0.527204 0.954038 0.954038
0.692181 0.979314 0.979314
0.859793 1.000000 1.000000
1.000000 1.000000 1.000000
